<?xml version="1.0" encoding="UTF-8"?>
<map version="1.10" tiledversion="1.12.1" orientation="orthogonal" renderorder="right-down" width="32" height="19" tilewidth="72" tileheight="72" infinite="0" nextlayerid="2" nextobjectid="1">
 <tileset firstgid="1" name="wolrd3_d3" tilewidth="72" tileheight="72" tilecount="608" columns="32">
  <image source="../DowloadedMap/Wrold3_D3.png" width="2304" height="1368"/>
  <tile id="0">
   <objectgroup>
    <object id="1" x="0" y="0" width="72" height="72"/>
   </objectgroup>
  </tile>
  <tile id="1">
   <objectgroup>
    <object id="1" x="0" y="0" width="72" height="72"/>
   </objectgroup>
  </tile>
  <tile id="2">
   <objectgroup>
    <object id="1" x="0" y="0" width="72" height="72"/>
   </objectgroup>
  </tile>
  <tile id="3">
   <objectgroup>
    <object id="1" x="0" y="0" width="72" height="72"/>
   </objectgroup>
  </tile>
  <tile id="4">
   <objectgroup>
    <object id="1" x="0" y="0" width="72" height="72"/>
   </objectgroup>
  </tile>
  <tile id="5">
   <objectgroup>
    <object id="1" x="0" y="0" width="72" height="72"/>
   </objectgroup>
  </tile>
  <tile id="6">
   <objectgroup>
    <object id="1" x="0" y="0" width="72" height="72"/>
   </objectgroup>
  </tile>
  <tile id="7">
   <objectgroup>
    <object id="1" x="0" y="0" width="72" height="72"/>
   </objectgroup>
  </tile>
  <tile id="8">
   <objectgroup>
    <object id="1" x="0" y="0" width="72" height="72"/>
   </objectgroup>
  </tile>
  <tile id="9">
   <objectgroup>
    <object id="1" x="0" y="0" width="72" height="72"/>
   </objectgroup>
  </tile>
  <tile id="10">
   <objectgroup>
    <object id="1" x="0" y="0" width="72" height="72"/>
   </objectgroup>
  </tile>
  <tile id="11">
   <objectgroup>
    <object id="1" x="0" y="0" width="72" height="72"/>
   </objectgroup>
  </tile>
  <tile id="12">
   <objectgroup>
    <object id="1" x="0" y="0" width="72" height="72"/>
   </objectgroup>
  </tile>
  <tile id="13">
   <objectgroup>
    <object id="1" x="0" y="0" width="72" height="72"/>
   </objectgroup>
  </tile>
  <tile id="14">
   <objectgroup>
    <object id="1" x="0" y="0" width="72" height="72"/>
   </objectgroup>
  </tile>
  <tile id="15">
   <objectgroup>
    <object id="1" x="0" y="0" width="72" height="72"/>
   </objectgroup>
  </tile>
  <tile id="16">
   <objectgroup>
    <object id="1" x="0" y="0" width="72" height="72"/>
   </objectgroup>
  </tile>
  <tile id="17">
   <objectgroup>
    <object id="1" x="0" y="0" width="72" height="72"/>
   </objectgroup>
  </tile>
  <tile id="18">
   <objectgroup>
    <object id="1" x="0" y="0" width="72" height="72"/>
   </objectgroup>
  </tile>
  <tile id="19">
   <objectgroup>
    <object id="1" x="0" y="0" width="72" height="72"/>
   </objectgroup>
  </tile>
  <tile id="20">
   <objectgroup>
    <object id="1" x="0" y="0" width="72" height="72"/>
   </objectgroup>
  </tile>
  <tile id="21">
   <objectgroup>
    <object id="1" x="0" y="0" width="72" height="72"/>
   </objectgroup>
  </tile>
  <tile id="22">
   <objectgroup>
    <object id="1" x="0" y="0" width="72" height="72"/>
   </objectgroup>
  </tile>
  <tile id="23">
   <objectgroup>
    <object id="1" x="0" y="0" width="72" height="72"/>
   </objectgroup>
  </tile>
  <tile id="24">
   <objectgroup>
    <object id="1" x="0" y="0" width="72" height="72"/>
   </objectgroup>
  </tile>
  <tile id="25">
   <objectgroup>
    <object id="1" x="0" y="0" width="72" height="72"/>
   </objectgroup>
  </tile>
  <tile id="26">
   <objectgroup>
    <object id="1" x="0" y="0" width="72" height="72"/>
   </objectgroup>
  </tile>
  <tile id="27">
   <objectgroup>
    <object id="1" x="0" y="0" width="72" height="72"/>
   </objectgroup>
  </tile>
  <tile id="28">
   <objectgroup>
    <object id="1" x="0" y="0" width="72" height="72"/>
   </objectgroup>
  </tile>
  <tile id="29">
   <objectgroup>
    <object id="1" x="0" y="0" width="72" height="72"/>
   </objectgroup>
  </tile>
  <tile id="30">
   <objectgroup>
    <object id="1" x="0" y="0" width="72" height="72"/>
   </objectgroup>
  </tile>
  <tile id="31">
   <objectgroup>
    <object id="1" x="0" y="0" width="72" height="72"/>
   </objectgroup>
  </tile>
  <tile id="32">
   <objectgroup>
    <object id="1" x="0" y="0" width="72" height="72"/>
   </objectgroup>
  </tile>
  <tile id="33">
   <objectgroup>
    <object id="1" x="0" y="0" width="72" height="72"/>
   </objectgroup>
  </tile>
  <tile id="34">
   <objectgroup>
    <object id="1" x="0" y="0" width="72" height="72"/>
   </objectgroup>
  </tile>
  <tile id="35">
   <objectgroup>
    <object id="1" x="0" y="0" width="72" height="72"/>
   </objectgroup>
  </tile>
  <tile id="36">
   <objectgroup>
    <object id="1" x="0" y="0" width="72" height="72"/>
   </objectgroup>
  </tile>
  <tile id="37">
   <objectgroup>
    <object id="1" x="0" y="0" width="72" height="72"/>
   </objectgroup>
  </tile>
  <tile id="38">
   <objectgroup>
    <object id="1" x="0" y="0" width="72" height="72"/>
   </objectgroup>
  </tile>
  <tile id="39">
   <objectgroup>
    <object id="1" x="0" y="0" width="72" height="72"/>
   </objectgroup>
  </tile>
  <tile id="40">
   <objectgroup>
    <object id="1" x="0" y="0" width="72" height="72"/>
   </objectgroup>
  </tile>
  <tile id="41">
   <objectgroup>
    <object id="1" x="0" y="0" width="72" height="72"/>
   </objectgroup>
  </tile>
  <tile id="42">
   <objectgroup>
    <object id="1" x="0" y="0" width="72" height="72"/>
   </objectgroup>
  </tile>
  <tile id="43">
   <objectgroup>
    <object id="1" x="0" y="0" width="72" height="72"/>
   </objectgroup>
  </tile>
  <tile id="44">
   <objectgroup>
    <object id="1" x="0" y="0" width="72" height="72"/>
   </objectgroup>
  </tile>
  <tile id="45">
   <objectgroup>
    <object id="1" x="0" y="0" width="72" height="72"/>
   </objectgroup>
  </tile>
  <tile id="46">
   <objectgroup>
    <object id="1" x="0" y="0" width="72" height="72"/>
   </objectgroup>
  </tile>
  <tile id="47">
   <objectgroup>
    <object id="1" x="0" y="0" width="72" height="72"/>
   </objectgroup>
  </tile>
  <tile id="48">
   <objectgroup>
    <object id="1" x="0" y="0" width="72" height="72"/>
   </objectgroup>
  </tile>
  <tile id="49">
   <objectgroup>
    <object id="1" x="0" y="0" width="72" height="72"/>
   </objectgroup>
  </tile>
  <tile id="50">
   <objectgroup>
    <object id="1" x="0" y="0" width="72" height="72"/>
   </objectgroup>
  </tile>
  <tile id="51">
   <objectgroup>
    <object id="1" x="0" y="0" width="72" height="72"/>
   </objectgroup>
  </tile>
  <tile id="52">
   <objectgroup>
    <object id="1" x="0" y="0" width="72" height="72"/>
   </objectgroup>
  </tile>
  <tile id="53">
   <objectgroup>
    <object id="1" x="0" y="0" width="72" height="72"/>
   </objectgroup>
  </tile>
  <tile id="54">
   <objectgroup>
    <object id="1" x="0" y="0" width="72" height="72"/>
   </objectgroup>
  </tile>
  <tile id="55">
   <objectgroup>
    <object id="1" x="0" y="0" width="72" height="72"/>
   </objectgroup>
  </tile>
  <tile id="56">
   <objectgroup>
    <object id="1" x="0" y="0" width="72" height="72"/>
   </objectgroup>
  </tile>
  <tile id="57">
   <objectgroup>
    <object id="1" x="0" y="0" width="72" height="72"/>
   </objectgroup>
  </tile>
  <tile id="58">
   <objectgroup>
    <object id="1" x="0" y="0" width="72" height="72"/>
   </objectgroup>
  </tile>
  <tile id="59">
   <objectgroup>
    <object id="1" x="0" y="0" width="72" height="72"/>
   </objectgroup>
  </tile>
  <tile id="60">
   <objectgroup>
    <object id="1" x="0" y="0" width="72" height="72"/>
   </objectgroup>
  </tile>
  <tile id="61">
   <objectgroup>
    <object id="1" x="0" y="0" width="72" height="72"/>
   </objectgroup>
  </tile>
  <tile id="62">
   <objectgroup>
    <object id="1" x="0" y="0" width="72" height="72"/>
   </objectgroup>
  </tile>
  <tile id="63">
   <objectgroup>
    <object id="1" x="0" y="0" width="72" height="72"/>
   </objectgroup>
  </tile>
  <tile id="64">
   <objectgroup>
    <object id="1" x="0" y="0" width="72" height="72"/>
   </objectgroup>
  </tile>
  <tile id="65">
   <objectgroup>
    <object id="1" x="0" y="0" width="72" height="72"/>
   </objectgroup>
  </tile>
  <tile id="66">
   <objectgroup>
    <object id="1" x="0" y="0" width="72" height="72"/>
   </objectgroup>
  </tile>
  <tile id="72">
   <objectgroup draworder="index" id="2">
    <object id="1" x="0" y="0" width="72" height="72"/>
   </objectgroup>
  </tile>
  <tile id="73">
   <objectgroup draworder="index" id="2">
    <object id="1" x="0" y="0" width="72" height="72"/>
   </objectgroup>
  </tile>
  <tile id="74">
   <objectgroup draworder="index" id="2">
    <object id="1" x="0" y="0" width="72" height="72"/>
   </objectgroup>
  </tile>
  <tile id="75">
   <objectgroup draworder="index" id="2">
    <object id="1" x="0" y="0" width="72" height="72"/>
   </objectgroup>
  </tile>
  <tile id="76">
   <objectgroup draworder="index" id="2">
    <object id="1" x="0" y="0" width="72" height="72"/>
   </objectgroup>
  </tile>
  <tile id="77">
   <objectgroup draworder="index" id="2">
    <object id="1" x="0" y="0" width="72" height="72"/>
   </objectgroup>
  </tile>
  <tile id="78">
   <objectgroup draworder="index" id="2">
    <object id="1" x="0" y="0" width="72" height="72"/>
   </objectgroup>
  </tile>
  <tile id="79">
   <objectgroup draworder="index" id="2">
    <object id="1" x="0" y="0" width="72" height="72"/>
   </objectgroup>
  </tile>
  <tile id="80">
   <objectgroup draworder="index" id="2">
    <object id="1" x="0" y="0" width="72" height="72"/>
   </objectgroup>
  </tile>
  <tile id="81">
   <objectgroup draworder="index" id="2">
    <object id="1" x="0" y="0" width="72" height="72"/>
   </objectgroup>
  </tile>
  <tile id="82">
   <objectgroup draworder="index" id="2">
    <object id="1" x="0" y="0" width="72" height="72"/>
   </objectgroup>
  </tile>
  <tile id="83">
   <objectgroup draworder="index" id="2">
    <object id="1" x="0" y="0" width="72" height="72"/>
    <object id="2" x="0" y="0" width="72" height="72"/>
   </objectgroup>
  </tile>
  <tile id="84">
   <objectgroup draworder="index" id="2">
    <object id="1" x="0" y="0" width="72" height="72"/>
   </objectgroup>
  </tile>
  <tile id="85">
   <objectgroup draworder="index" id="2">
    <object id="1" x="0" y="0" width="72" height="72"/>
   </objectgroup>
  </tile>
  <tile id="86">
   <objectgroup draworder="index" id="2">
    <object id="1" x="0" y="0" width="72" height="72"/>
   </objectgroup>
  </tile>
  <tile id="87">
   <objectgroup draworder="index" id="2">
    <object id="1" x="0" y="0" width="72" height="72"/>
   </objectgroup>
  </tile>
  <tile id="88">
   <objectgroup draworder="index" id="2">
    <object id="1" x="0" y="0" width="72" height="72"/>
   </objectgroup>
  </tile>
  <tile id="89">
   <objectgroup draworder="index" id="2">
    <object id="1" x="0" y="0" width="72" height="72"/>
   </objectgroup>
  </tile>
  <tile id="90">
   <objectgroup draworder="index" id="2">
    <object id="1" x="0" y="0" width="72" height="72"/>
   </objectgroup>
  </tile>
  <tile id="91">
   <objectgroup draworder="index" id="2">
    <object id="1" x="0" y="0" width="72" height="72"/>
   </objectgroup>
  </tile>
  <tile id="92">
   <objectgroup>
    <object id="1" x="0" y="0" width="72" height="72"/>
   </objectgroup>
  </tile>
  <tile id="93">
   <objectgroup>
    <object id="1" x="0" y="0" width="72" height="72"/>
   </objectgroup>
  </tile>
  <tile id="94">
   <objectgroup>
    <object id="1" x="0" y="0" width="72" height="72"/>
   </objectgroup>
  </tile>
  <tile id="95">
   <objectgroup>
    <object id="1" x="0" y="0" width="72" height="72"/>
   </objectgroup>
  </tile>
  <tile id="96">
   <objectgroup>
    <object id="1" x="0" y="0" width="72" height="72"/>
   </objectgroup>
  </tile>
  <tile id="97">
   <objectgroup>
    <object id="1" x="0" y="0" width="72" height="72"/>
   </objectgroup>
  </tile>
  <tile id="98">
   <objectgroup>
    <object id="1" x="0" y="0" width="72" height="72"/>
   </objectgroup>
  </tile>
  <tile id="100">
   <objectgroup draworder="index" id="2">
    <object id="1" x="25.5" y="15.5" width="48.5" height="26.5"/>
   </objectgroup>
  </tile>
  <tile id="101">
   <objectgroup draworder="index" id="2">
    <object id="1" x="0.5" y="13.5" width="30" height="23"/>
   </objectgroup>
  </tile>
  <tile id="103">
   <objectgroup draworder="index" id="2">
    <object id="1" x="7" y="68">
     <polygon points="0,0 -0.5,-4.5 -3,-9 -2,-10.5 -0.5,-12 0.5,-13 2.5,-15.5 3.5,-17.5 4.5,-20 5.5,-22 6.5,-23.5 8,-24 8.5,-24 11,-22.5 22.5,-17.5 24,-16 24,-15.5 28,-15 32,-17.5 34.5,-20.5 35.5,-24.5 36.5,-31 37,-34 39.5,-35.5 43.5,-32.5 49,-25 55,-18 60,-12.5 64,-10 72,1.5 -3,9"/>
    </object>
   </objectgroup>
  </tile>
  <tile id="104">
   <objectgroup draworder="index" id="2">
    <object id="1" x="0" y="0" width="72" height="72"/>
   </objectgroup>
  </tile>
  <tile id="105">
   <objectgroup draworder="index" id="2">
    <object id="1" x="0" y="0" width="72" height="72"/>
   </objectgroup>
  </tile>
  <tile id="106">
   <objectgroup draworder="index" id="2">
    <object id="1" x="0" y="0" width="72" height="72"/>
   </objectgroup>
  </tile>
  <tile id="107">
   <objectgroup draworder="index" id="2">
    <object id="1" x="-1.5" y="-2.5" width="75" height="37.5"/>
   </objectgroup>
  </tile>
  <tile id="108">
   <objectgroup draworder="index" id="2">
    <object id="1" x="1.5" y="-1" width="30" height="73.5"/>
    <object id="2" x="22.5" y="-1" width="53.5" height="61"/>
   </objectgroup>
  </tile>
  <tile id="109">
   <objectgroup draworder="index" id="2">
    <object id="1" x="-0.5" y="-1.5" width="73" height="76"/>
   </objectgroup>
  </tile>
  <tile id="110">
   <objectgroup draworder="index" id="2">
    <object id="1" x="-0.5" y="-0.5" width="73" height="26"/>
    <object id="2" x="-1" y="23" width="43" height="27"/>
   </objectgroup>
  </tile>
  <tile id="113">
   <objectgroup draworder="index" id="2">
    <object id="1" x="0.5" y="-0.5" width="71.5" height="48.5"/>
   </objectgroup>
  </tile>
  <tile id="114">
   <objectgroup draworder="index" id="2">
    <object id="1" x="-2.5" y="0.5" width="47" height="71.5"/>
    <object id="2" x="43" y="1" width="29" height="61"/>
   </objectgroup>
  </tile>
  <tile id="115">
   <objectgroup draworder="index" id="2">
    <object id="2" x="0" y="-0.5" width="42.5" height="74"/>
    <object id="3" x="42" y="1" width="30" height="41.5"/>
   </objectgroup>
  </tile>
  <tile id="116">
   <objectgroup draworder="index" id="2">
    <object id="1" x="48" y="0" width="26" height="76"/>
    <object id="2" x="-1.5" y="-1" width="50" height="31.5"/>
   </objectgroup>
  </tile>
  <tile id="117">
   <objectgroup draworder="index" id="2">
    <object id="1" x="0" y="0" width="72" height="72"/>
   </objectgroup>
  </tile>
  <tile id="118">
   <objectgroup draworder="index" id="2">
    <object id="1" x="0" y="0" width="72" height="72"/>
   </objectgroup>
  </tile>
  <tile id="121">
   <objectgroup draworder="index" id="2">
    <object id="1" x="0" y="-1.5" width="72.5" height="42"/>
   </objectgroup>
  </tile>
  <tile id="122">
   <objectgroup draworder="index" id="2">
    <object id="1" x="0.25" y="0" width="72.5" height="42"/>
   </objectgroup>
  </tile>
  <tile id="123">
   <objectgroup draworder="index" id="2">
    <object id="1" x="0" y="0" width="72" height="72"/>
   </objectgroup>
  </tile>
  <tile id="124">
   <objectgroup>
    <object id="1" x="0" y="0" width="72" height="72"/>
   </objectgroup>
  </tile>
  <tile id="125">
   <objectgroup>
    <object id="1" x="0" y="0" width="72" height="72"/>
   </objectgroup>
  </tile>
  <tile id="126">
   <objectgroup>
    <object id="1" x="0" y="0" width="72" height="72"/>
   </objectgroup>
  </tile>
  <tile id="127">
   <objectgroup>
    <object id="1" x="0" y="0" width="72" height="72"/>
   </objectgroup>
  </tile>
  <tile id="128">
   <objectgroup>
    <object id="1" x="0" y="0" width="72" height="72"/>
   </objectgroup>
  </tile>
  <tile id="129">
   <objectgroup>
    <object id="1" x="0" y="0" width="72" height="72"/>
   </objectgroup>
  </tile>
  <tile id="130">
   <objectgroup>
    <object id="1" x="0" y="0" width="72" height="72"/>
   </objectgroup>
  </tile>
  <tile id="131">
   <objectgroup draworder="index" id="2">
    <object id="1" x="-1.5" y="-0.5" width="55" height="73"/>
   </objectgroup>
  </tile>
  <tile id="135">
   <objectgroup draworder="index" id="2">
    <object id="1" x="0" y="0" width="72" height="72"/>
   </objectgroup>
  </tile>
  <tile id="136">
   <objectgroup draworder="index" id="2">
    <object id="1" x="0" y="0" width="72" height="72"/>
   </objectgroup>
  </tile>
  <tile id="137">
   <objectgroup draworder="index" id="2">
    <object id="1" x="0" y="0" width="72" height="72"/>
   </objectgroup>
  </tile>
  <tile id="138">
   <objectgroup draworder="index" id="2">
    <object id="1" x="0" y="0" width="72" height="72"/>
   </objectgroup>
  </tile>
  <tile id="141">
   <objectgroup draworder="index" id="2">
    <object id="1" x="54" y="68" width="19.5" height="5"/>
   </objectgroup>
  </tile>
  <tile id="142">
   <objectgroup draworder="index" id="2">
    <object id="1" x="46" y="68.5" width="14" height="4"/>
   </objectgroup>
  </tile>
  <tile id="145">
   <objectgroup draworder="index" id="2">
    <object id="1" x="43.5" y="67" width="17.5" height="5.5"/>
   </objectgroup>
  </tile>
  <tile id="148">
   <objectgroup draworder="index" id="2">
    <object id="1" x="48" y="-1.5" width="24.5" height="72"/>
   </objectgroup>
  </tile>
  <tile id="149">
   <objectgroup draworder="index" id="2">
    <object id="1" x="0" y="0" width="72" height="72"/>
   </objectgroup>
  </tile>
  <tile id="150">
   <objectgroup draworder="index" id="2">
    <object id="1" x="0" y="0" width="72" height="72"/>
   </objectgroup>
  </tile>
  <tile id="151">
   <objectgroup draworder="index" id="2">
    <object id="1" x="-3.5" y="28" width="44.5" height="47.5"/>
   </objectgroup>
  </tile>
  <tile id="155">
   <objectgroup draworder="index" id="2">
    <object id="2" x="0" y="0" width="72" height="72"/>
   </objectgroup>
  </tile>
  <tile id="156">
   <objectgroup>
    <object id="1" x="0" y="0" width="72" height="72"/>
   </objectgroup>
  </tile>
  <tile id="157">
   <objectgroup>
    <object id="1" x="0" y="0" width="72" height="72"/>
   </objectgroup>
  </tile>
  <tile id="158">
   <objectgroup>
    <object id="1" x="0" y="0" width="72" height="72"/>
   </objectgroup>
  </tile>
  <tile id="159">
   <objectgroup>
    <object id="1" x="0" y="0" width="72" height="72"/>
   </objectgroup>
  </tile>
  <tile id="160">
   <objectgroup>
    <object id="1" x="0" y="0" width="72" height="72"/>
   </objectgroup>
  </tile>
  <tile id="161">
   <objectgroup>
    <object id="1" x="0" y="0" width="72" height="72"/>
   </objectgroup>
  </tile>
  <tile id="162">
   <objectgroup>
    <object id="1" x="0" y="0" width="72" height="72"/>
   </objectgroup>
  </tile>
  <tile id="163">
   <objectgroup draworder="index" id="2">
    <object id="1" x="-0.25" y="-0.75" width="22.75" height="73"/>
   </objectgroup>
  </tile>
  <tile id="166">
   <objectgroup draworder="index" id="3">
    <object id="5" x="31.5" y="19">
     <polygon points="0,0 -6.5,3 -8,6 -3.5,12.5 4,14.5 9.5,10.5 5.5,4.5"/>
    </object>
   </objectgroup>
  </tile>
  <tile id="167">
   <objectgroup draworder="index" id="2">
    <object id="1" x="34.5" y="2">
     <polygon points="0,0 1,32 27.5,29.5 27.5,4 37,22 48.5,7 38.5,-9.5"/>
    </object>
   </objectgroup>
  </tile>
  <tile id="168">
   <objectgroup draworder="index" id="2">
    <object id="1" x="0" y="0" width="72" height="72"/>
   </objectgroup>
  </tile>
  <tile id="169">
   <objectgroup draworder="index" id="2">
    <object id="1" x="0" y="0" width="72" height="72"/>
   </objectgroup>
  </tile>
  <tile id="170">
   <objectgroup draworder="index" id="2">
    <object id="1" x="21" y="75">
     <polygon points="0,0 14,-1 14,-5 12.5,-7.5 10.5,-14 8,-17 15.5,-22.5 20,-26 30,-31.5 40,-38 46.5,-62 47.5,-71.5 48,-81.5 -24,-79 -25,-2"/>
    </object>
   </objectgroup>
  </tile>
  <tile id="172">
   <objectgroup draworder="index" id="2">
    <object id="1" x="12" y="32">
     <polygon points="0,0 -0.5,3 -1,6.5 -1,9 -1,14.5 -1,17.5 0.5,23 2.5,26 6,29.5 10.5,32.5 13,35 15.5,38 18,39 20.5,37.5 20.5,34.5 22.5,30.5 24,29.5 27.5,28 29.5,27 32.5,23 33,21.5 33,18.5 35.5,15 37,11.5 33.5,6.5 33.5,3.5 32.5,-1.5 30,-6 29,-6 24.5,-5 21,-9.5 17,-12 12.5,-12 5.5,-10 2,-6.5"/>
    </object>
   </objectgroup>
  </tile>
  <tile id="173">
   <objectgroup draworder="index" id="2">
    <object id="1" x="52.5" y="0.5" width="20.5" height="45"/>
   </objectgroup>
  </tile>
  <tile id="174">
   <objectgroup draworder="index" id="2">
    <object id="1" x="0" y="0" width="60" height="71.5"/>
    <object id="2" x="59.5" y="7.5" width="12.5" height="65"/>
   </objectgroup>
  </tile>
  <tile id="175">
   <objectgroup draworder="index" id="2">
    <object id="1" x="-5" y="11" width="8.5" height="60.5"/>
   </objectgroup>
  </tile>
  <tile id="176">
   <objectgroup draworder="index" id="3">
    <object id="3" x="41" y="16" width="31.5" height="57"/>
    <object id="4" x="41" y="17">
     <polygon points="0,0 16,-17 31,-17.5 32,-1"/>
    </object>
   </objectgroup>
  </tile>
  <tile id="177">
   <objectgroup draworder="index" id="2">
    <object id="1" x="-1" y="-1" width="62.5" height="46.5"/>
   </objectgroup>
  </tile>
  <tile id="179">
   <objectgroup draworder="index" id="2">
    <object id="1" x="7.5" y="20">
     <polygon points="0,0 6.5,3.5 10.5,6.5 20,15 21.5,18.5 21,27.5 20.5,31 17,38 9.5,42 5,44 -3,45.5 -9.5,43 -10,43 -13.5,41.5 -15,38.5 -16.5,35 -10.5,21.5 -9,13 -17,14 -16.5,34.5 -21.5,27 -21.5,18.5 -18,10.5 -9.5,4.5"/>
    </object>
   </objectgroup>
  </tile>
  <tile id="180">
   <objectgroup draworder="index" id="2">
    <object id="1" x="40.5" y="0.5" width="30.5" height="73.5"/>
   </objectgroup>
  </tile>
  <tile id="181">
   <objectgroup draworder="index" id="2">
    <object id="2" x="0" y="1" width="71.5" height="45.5"/>
    <object id="3" x="-2" y="-1" width="11.5" height="74.5"/>
   </objectgroup>
  </tile>
  <tile id="182">
   <objectgroup draworder="index" id="2">
    <object id="1" x="0" y="-0.5" width="72" height="55"/>
   </objectgroup>
  </tile>
  <tile id="183">
   <objectgroup draworder="index" id="2">
    <object id="1" x="-0.5" y="-1" width="41" height="73.5"/>
   </objectgroup>
  </tile>
  <tile id="184">
   <objectgroup draworder="index" id="2">
    <object id="1" x="56" y="22.5" width="16.5" height="51.5"/>
   </objectgroup>
  </tile>
  <tile id="185">
   <objectgroup draworder="index" id="2">
    <object id="1" x="-1" y="39.5" width="74" height="35"/>
   </objectgroup>
  </tile>
  <tile id="186">
   <objectgroup draworder="index" id="2">
    <object id="1" x="-0.5" y="39.5" width="74" height="34"/>
   </objectgroup>
  </tile>
  <tile id="187">
   <objectgroup draworder="index" id="2">
    <object id="3" x="0" y="0" width="72" height="72"/>
   </objectgroup>
  </tile>
  <tile id="188">
   <objectgroup>
    <object id="1" x="0" y="0" width="72" height="72"/>
   </objectgroup>
  </tile>
  <tile id="189">
   <objectgroup>
    <object id="1" x="0" y="0" width="72" height="72"/>
   </objectgroup>
  </tile>
  <tile id="190">
   <objectgroup>
    <object id="1" x="0" y="0" width="72" height="72"/>
   </objectgroup>
  </tile>
  <tile id="191">
   <objectgroup>
    <object id="1" x="0" y="0" width="72" height="72"/>
   </objectgroup>
  </tile>
  <tile id="192">
   <objectgroup>
    <object id="1" x="0" y="0" width="72" height="72"/>
   </objectgroup>
  </tile>
  <tile id="193">
   <objectgroup>
    <object id="1" x="0" y="0" width="72" height="72"/>
   </objectgroup>
  </tile>
  <tile id="194">
   <objectgroup>
    <object id="1" x="0" y="0" width="72" height="72"/>
   </objectgroup>
  </tile>
  <tile id="195">
   <objectgroup draworder="index" id="2">
    <object id="1" x="0.25" y="-0.75" width="17.5" height="73.5"/>
    <object id="2" x="17.5" y="31.5" width="54.25" height="40.75"/>
   </objectgroup>
  </tile>
  <tile id="196">
   <objectgroup draworder="index" id="2">
    <object id="1" x="-1.25" y="37" width="73.5" height="34.75"/>
   </objectgroup>
  </tile>
  <tile id="197">
   <objectgroup draworder="index" id="2">
    <object id="1" x="-0.75" y="37.5" width="31.75" height="34.25"/>
   </objectgroup>
  </tile>
  <tile id="198">
   <objectgroup draworder="index" id="2">
    <object id="1" x="29.5" y="38.5" width="43.5" height="34.5"/>
   </objectgroup>
  </tile>
  <tile id="199">
   <objectgroup draworder="index" id="3">
    <object id="2" x="-2" y="38" width="75.5" height="35"/>
   </objectgroup>
  </tile>
  <tile id="200">
   <objectgroup draworder="index" id="2">
    <object id="1" x="0" y="0" width="72" height="72"/>
   </objectgroup>
  </tile>
  <tile id="201">
   <objectgroup draworder="index" id="2">
    <object id="1" x="0" y="0" width="72" height="72"/>
   </objectgroup>
  </tile>
  <tile id="202">
   <objectgroup draworder="index" id="3">
    <object id="2" x="1" y="71.5">
     <polygon points="0,0 24,-9 46.5,-35 44.5,-64 28,-75 -11.5,-76 -12,0.5"/>
    </object>
   </objectgroup>
  </tile>
  <tile id="206">
   <objectgroup draworder="index" id="2">
    <object id="1" x="50" y="-0.5" width="22.5" height="48.5"/>
   </objectgroup>
  </tile>
  <tile id="207">
   <objectgroup draworder="index" id="2">
    <object id="1" x="-0.5" y="-3" width="4" height="54.5"/>
   </objectgroup>
  </tile>
  <tile id="208">
   <objectgroup draworder="index" id="2">
    <object id="1" x="43.5" y="-1" width="29.5" height="53.5"/>
   </objectgroup>
  </tile>
  <tile id="212">
   <objectgroup draworder="index" id="2">
    <object id="1" x="39" y="0" width="34" height="72.5"/>
   </objectgroup>
  </tile>
  <tile id="213">
   <objectgroup draworder="index" id="2">
    <object id="1" x="-1" y="-4" width="11" height="78"/>
   </objectgroup>
  </tile>
  <tile id="216">
   <objectgroup draworder="index" id="2">
    <object id="1" x="57" y="0.5" width="16.5" height="40.5"/>
   </objectgroup>
  </tile>
  <tile id="217">
   <objectgroup draworder="index" id="2">
    <object id="1" x="0" y="0" width="72" height="72"/>
   </objectgroup>
  </tile>
  <tile id="218">
   <objectgroup draworder="index" id="2">
    <object id="1" x="0" y="0" width="72" height="72"/>
   </objectgroup>
  </tile>
  <tile id="219">
   <objectgroup draworder="index" id="2">
    <object id="1" x="0" y="0" width="72" height="72"/>
   </objectgroup>
  </tile>
  <tile id="220">
   <objectgroup>
    <object id="1" x="0" y="0" width="72" height="72"/>
   </objectgroup>
  </tile>
  <tile id="221">
   <objectgroup>
    <object id="1" x="0" y="0" width="72" height="72"/>
   </objectgroup>
  </tile>
  <tile id="222">
   <objectgroup>
    <object id="1" x="0" y="0" width="72" height="72"/>
   </objectgroup>
  </tile>
  <tile id="223">
   <objectgroup>
    <object id="1" x="0" y="0" width="72" height="72"/>
   </objectgroup>
  </tile>
  <tile id="224">
   <objectgroup>
    <object id="1" x="0" y="0" width="72" height="72"/>
   </objectgroup>
  </tile>
  <tile id="225">
   <objectgroup>
    <object id="1" x="0" y="0" width="72" height="72"/>
   </objectgroup>
  </tile>
  <tile id="226">
   <objectgroup>
    <object id="1" x="0" y="0" width="72" height="72"/>
   </objectgroup>
  </tile>
  <tile id="227">
   <objectgroup draworder="index" id="2">
    <object id="1" x="0" y="0" width="72" height="72"/>
   </objectgroup>
  </tile>
  <tile id="228">
   <objectgroup draworder="index" id="2">
    <object id="1" x="-0.25" y="-0.25" width="72" height="72.5"/>
   </objectgroup>
  </tile>
  <tile id="229">
   <objectgroup draworder="index" id="2">
    <object id="1" x="0" y="-0.75" width="30" height="72.5"/>
   </objectgroup>
  </tile>
  <tile id="230">
   <objectgroup draworder="index" id="2">
    <object id="1" x="31.5" y="-1" width="41" height="73.5"/>
   </objectgroup>
  </tile>
  <tile id="231">
   <objectgroup draworder="index" id="2">
    <object id="1" x="0" y="0" width="72" height="72"/>
   </objectgroup>
  </tile>
  <tile id="232">
   <objectgroup draworder="index" id="2">
    <object id="1" x="0" y="0" width="72" height="72"/>
   </objectgroup>
  </tile>
  <tile id="233">
   <objectgroup draworder="index" id="2">
    <object id="1" x="50" y="0">
     <polygon points="0,0 0,8.5 -2,17 -8,35.5 -7.5,43.5 -11,58 -20.5,67 -34,75 -44,79.5 -58,70 -58,58 -55.5,40 -52.5,14 -52.5,3 -52.5,-6 -33,-5 -10.5,-1"/>
    </object>
   </objectgroup>
  </tile>
  <tile id="244">
   <objectgroup draworder="index" id="2">
    <object id="1" x="39" y="0" width="33.5" height="74"/>
   </objectgroup>
  </tile>
  <tile id="245">
   <objectgroup draworder="index" id="2">
    <object id="1" x="-0.5" y="-2.5" width="11.5" height="73.5"/>
   </objectgroup>
  </tile>
  <tile id="246">
   <objectgroup draworder="index" id="2">
    <object id="1" x="15" y="-1.5" width="56.5" height="74.5"/>
   </objectgroup>
  </tile>
  <tile id="249">
   <objectgroup draworder="index" id="2">
    <object id="1" x="-0.5" y="-0.5" width="72.5" height="57"/>
   </objectgroup>
  </tile>
  <tile id="250">
   <objectgroup draworder="index" id="2">
    <object id="1" x="-3.5" y="-2" width="79" height="52.5"/>
   </objectgroup>
  </tile>
  <tile id="251">
   <objectgroup draworder="index" id="2">
    <object id="1" x="-4" y="-2.75" width="79" height="52.5"/>
   </objectgroup>
  </tile>
  <tile id="252">
   <objectgroup>
    <object id="1" x="0" y="0" width="72" height="72"/>
   </objectgroup>
  </tile>
  <tile id="253">
   <objectgroup>
    <object id="1" x="0" y="0" width="72" height="72"/>
   </objectgroup>
  </tile>
  <tile id="254">
   <objectgroup>
    <object id="1" x="0" y="0" width="72" height="72"/>
   </objectgroup>
  </tile>
  <tile id="255">
   <objectgroup>
    <object id="1" x="0" y="0" width="72" height="72"/>
   </objectgroup>
  </tile>
  <tile id="256">
   <objectgroup>
    <object id="1" x="0" y="0" width="72" height="72"/>
   </objectgroup>
  </tile>
  <tile id="257">
   <objectgroup>
    <object id="1" x="0" y="0" width="72" height="72"/>
   </objectgroup>
  </tile>
  <tile id="258">
   <objectgroup>
    <object id="1" x="0" y="0" width="72" height="72"/>
   </objectgroup>
  </tile>
  <tile id="259">
   <objectgroup draworder="index" id="2">
    <object id="6" x="0" y="0" width="72" height="72"/>
   </objectgroup>
  </tile>
  <tile id="260">
   <objectgroup draworder="index" id="2">
    <object id="1" x="0" y="-14.25" width="19" height="58.75"/>
   </objectgroup>
  </tile>
  <tile id="267">
   <objectgroup draworder="index" id="2">
    <object id="1" x="6" y="73">
     <polygon points="0,0 1,-3.5 1.5,-12 1.5,-17 10.5,-24 19.5,-30 23.5,-29 30,-24 36.5,-17.5 40,-11 43,-5.5 43.5,-3.5 43.5,-1.5 43.5,-1"/>
    </object>
   </objectgroup>
  </tile>
  <tile id="276">
   <objectgroup draworder="index" id="2">
    <object id="1" x="-2.5" y="72">
     <polygon points="0,0 -0.5,-4 0.5,-16 4,-18.5 14,-23 17,-24.5 26,-24.5 33.5,-19 37.5,-12.5 38,-1.5 38,4 22,5 6.5,4.5 -1.5,4.5"/>
    </object>
   </objectgroup>
  </tile>
  <tile id="278">
   <objectgroup draworder="index" id="2">
    <object id="1" x="14.5" y="0" width="57.5" height="73"/>
   </objectgroup>
  </tile>
  <tile id="279">
   <objectgroup draworder="index" id="2">
    <object id="1" x="0" y="0" width="72" height="72"/>
   </objectgroup>
  </tile>
  <tile id="280">
   <objectgroup draworder="index" id="2">
    <object id="1" x="0" y="-0.5" width="47" height="73.5"/>
    <object id="2" x="35.5" y="45" width="37" height="28.5"/>
   </objectgroup>
  </tile>
  <tile id="281">
   <objectgroup draworder="index" id="2">
    <object id="1" x="0" y="43" width="61" height="30"/>
   </objectgroup>
  </tile>
  <tile id="283">
   <objectgroup draworder="index" id="2">
    <object id="1" x="36" y="-8" width="38.5" height="87.5"/>
   </objectgroup>
  </tile>
  <tile id="284">
   <objectgroup>
    <object id="1" x="0" y="0" width="72" height="72"/>
   </objectgroup>
  </tile>
  <tile id="285">
   <objectgroup>
    <object id="1" x="0" y="0" width="72" height="72"/>
   </objectgroup>
  </tile>
  <tile id="286">
   <objectgroup>
    <object id="1" x="0" y="0" width="72" height="72"/>
   </objectgroup>
  </tile>
  <tile id="287">
   <objectgroup>
    <object id="1" x="0" y="0" width="72" height="72"/>
   </objectgroup>
  </tile>
  <tile id="288">
   <objectgroup>
    <object id="1" x="0" y="0" width="72" height="72"/>
   </objectgroup>
  </tile>
  <tile id="289">
   <objectgroup>
    <object id="1" x="0" y="0" width="72" height="72"/>
   </objectgroup>
  </tile>
  <tile id="290">
   <objectgroup>
    <object id="1" x="0" y="0" width="72" height="72"/>
   </objectgroup>
  </tile>
  <tile id="291">
   <objectgroup draworder="index" id="2">
    <object id="1" x="-0.25" y="-0.25" width="46" height="72.25"/>
   </objectgroup>
  </tile>
  <tile id="292">
   <objectgroup draworder="index" id="2">
    <object id="1" x="45.4545" y="43.0909" width="26.3636" height="29.4545"/>
   </objectgroup>
  </tile>
  <tile id="293">
   <objectgroup draworder="index" id="2">
    <object id="1" x="0.5" y="42.5" width="35" height="29"/>
   </objectgroup>
  </tile>
  <tile id="299">
   <objectgroup draworder="index" id="2">
    <object id="1" x="6.5" y="-1">
     <polygon points="0,0 6,4 7,6.5 10,11 16,14 21,14 24,15.5 29,15.5 34,12 39,7 39.5,2.5 39.5,0.5"/>
    </object>
   </objectgroup>
  </tile>
  <tile id="308">
   <objectgroup draworder="index" id="2">
    <object id="1" x="-2" y="0.5">
     <polygon points="0,0 0,2.5 1.5,10.5 4.5,15 12,17.5 17,17 23.5,15.5 28,13 30,10 32.5,6.5 37,0.5 38.5,-2.5 37.5,-3.5"/>
    </object>
   </objectgroup>
  </tile>
  <tile id="310">
   <objectgroup draworder="index" id="2">
    <object id="1" x="14" y="-1.5" width="58.5" height="74"/>
   </objectgroup>
  </tile>
  <tile id="311">
   <objectgroup draworder="index" id="2">
    <object id="1" x="0" y="0" width="72" height="72"/>
   </objectgroup>
  </tile>
  <tile id="312">
   <objectgroup draworder="index" id="2">
    <object id="1" x="0" y="0" width="72" height="72"/>
   </objectgroup>
  </tile>
  <tile id="313">
   <objectgroup draworder="index" id="2">
    <object id="1" x="-0.5" y="0.5" width="60.5" height="73"/>
   </objectgroup>
  </tile>
  <tile id="315">
   <objectgroup draworder="index" id="2">
    <object id="1" x="27" y="0" width="45.5" height="73.5"/>
   </objectgroup>
  </tile>
  <tile id="316">
   <objectgroup>
    <object id="1" x="0" y="0" width="72" height="72"/>
   </objectgroup>
  </tile>
  <tile id="317">
   <objectgroup>
    <object id="1" x="0" y="0" width="72" height="72"/>
   </objectgroup>
  </tile>
  <tile id="318">
   <objectgroup>
    <object id="1" x="0" y="0" width="72" height="72"/>
   </objectgroup>
  </tile>
  <tile id="319">
   <objectgroup>
    <object id="1" x="0" y="0" width="72" height="72"/>
   </objectgroup>
  </tile>
  <tile id="320">
   <objectgroup>
    <object id="1" x="0" y="0" width="72" height="72"/>
   </objectgroup>
  </tile>
  <tile id="321">
   <objectgroup>
    <object id="1" x="0" y="0" width="72" height="72"/>
   </objectgroup>
  </tile>
  <tile id="322">
   <objectgroup>
    <object id="1" x="0" y="0" width="72" height="72"/>
   </objectgroup>
  </tile>
  <tile id="323">
   <objectgroup draworder="index" id="2">
    <object id="1" x="-1" y="-1" width="49" height="74.25"/>
   </objectgroup>
  </tile>
  <tile id="324">
   <objectgroup draworder="index" id="2">
    <object id="1" x="45.5864" y="30.2613">
     <polygon points="0,0.465998 26.1,0.232999 26.2318,-29.1249 -0.131818,-29.1249"/>
    </object>
   </objectgroup>
  </tile>
  <tile id="325">
   <objectgroup draworder="index" id="2">
    <object id="1" x="-0.181818" y="29.7158">
     <polygon points="0,0.465999 36,0.232999 36.1818,-29.1249 -0.181818,-29.1249"/>
    </object>
   </objectgroup>
  </tile>
  <tile id="327">
   <objectgroup draworder="index" id="2">
    <object id="1" x="43" y="22.75" width="29" height="50"/>
   </objectgroup>
  </tile>
  <tile id="328">
   <objectgroup draworder="index" id="2">
    <object id="1" x="0.75" y="32.75" width="71" height="20.5"/>
    <object id="2" x="61.75" y="53.5" width="10.25" height="19"/>
   </objectgroup>
  </tile>
  <tile id="342">
   <objectgroup draworder="index" id="2">
    <object id="1" x="14.5" y="0.5" width="58.5" height="71"/>
   </objectgroup>
  </tile>
  <tile id="348">
   <objectgroup>
    <object id="1" x="0" y="0" width="72" height="72"/>
   </objectgroup>
  </tile>
  <tile id="349">
   <objectgroup>
    <object id="1" x="0" y="0" width="72" height="72"/>
   </objectgroup>
  </tile>
  <tile id="350">
   <objectgroup>
    <object id="1" x="0" y="0" width="72" height="72"/>
   </objectgroup>
  </tile>
  <tile id="351">
   <objectgroup>
    <object id="1" x="0" y="0" width="72" height="72"/>
   </objectgroup>
  </tile>
  <tile id="352">
   <objectgroup>
    <object id="1" x="0" y="0" width="72" height="72"/>
   </objectgroup>
  </tile>
  <tile id="353">
   <objectgroup>
    <object id="1" x="0" y="0" width="72" height="72"/>
   </objectgroup>
  </tile>
  <tile id="354">
   <objectgroup>
    <object id="1" x="0" y="0" width="72" height="72"/>
   </objectgroup>
  </tile>
  <tile id="355">
   <objectgroup draworder="index" id="2">
    <object id="1" x="-0.5" y="-0.5" width="46" height="71.75"/>
   </objectgroup>
  </tile>
  <tile id="360">
   <objectgroup draworder="index" id="2">
    <object id="1" x="55" y="0" width="16.75" height="39.5"/>
   </objectgroup>
  </tile>
  <tile id="361">
   <objectgroup draworder="index" id="2">
    <object id="1" x="0.25" y="0.25" width="15" height="38.25"/>
    <object id="2" x="15" y="-0.75" width="57.25" height="19.5"/>
   </objectgroup>
  </tile>
  <tile id="362">
   <objectgroup draworder="index" id="2">
    <object id="1" x="0" y="-0.25" width="63.75" height="19.25"/>
    <object id="2" x="43.5" y="-0.25" width="20.5" height="73.25"/>
   </objectgroup>
  </tile>
  <tile id="374">
   <objectgroup draworder="index" id="2">
    <object id="1" x="27" y="-1.5" width="46" height="25.5"/>
   </objectgroup>
  </tile>
  <tile id="375">
   <objectgroup draworder="index" id="2">
    <object id="1" x="13.5" y="-1.5">
     <polygon points="0,0 55,22.5 62.5,23 59.5,46 57.5,49.5 49,48.5 -16,20.5 -19.5,-1.5"/>
    </object>
   </objectgroup>
  </tile>
  <tile id="379">
   <objectgroup>
    <object id="1" x="0" y="0" width="72" height="72"/>
   </objectgroup>
  </tile>
  <tile id="380">
   <objectgroup>
    <object id="1" x="0" y="0" width="72" height="72"/>
   </objectgroup>
  </tile>
  <tile id="381">
   <objectgroup>
    <object id="1" x="0" y="0" width="72" height="72"/>
   </objectgroup>
  </tile>
  <tile id="382">
   <objectgroup>
    <object id="1" x="0" y="0" width="72" height="72"/>
   </objectgroup>
  </tile>
  <tile id="383">
   <objectgroup>
    <object id="1" x="0" y="0" width="72" height="72"/>
   </objectgroup>
  </tile>
  <tile id="384">
   <objectgroup>
    <object id="1" x="0" y="0" width="72" height="72"/>
   </objectgroup>
  </tile>
  <tile id="385">
   <objectgroup>
    <object id="1" x="0" y="0" width="72" height="72"/>
   </objectgroup>
  </tile>
  <tile id="386">
   <objectgroup>
    <object id="1" x="0" y="0" width="72" height="72"/>
   </objectgroup>
  </tile>
  <tile id="387">
   <objectgroup>
    <object id="1" x="0" y="0" width="72" height="72"/>
   </objectgroup>
  </tile>
  <tile id="388">
   <objectgroup draworder="index" id="2">
    <object id="1" x="-0.25" y="12" width="46" height="62"/>
    <object id="2" x="0" y="0" width="72" height="72"/>
   </objectgroup>
  </tile>
  <tile id="389">
   <objectgroup draworder="index" id="2">
    <object id="1" x="44.75" y="10.25" width="27.5" height="61.5"/>
    <object id="2" x="0" y="0" width="72" height="72"/>
   </objectgroup>
  </tile>
  <tile id="390">
   <objectgroup draworder="index" id="2">
    <object id="1" x="-0.75" y="-1.25" width="26.75" height="73.75"/>
   </objectgroup>
  </tile>
  <tile id="394">
   <objectgroup draworder="index" id="2">
    <object id="1" x="42.25" y="-0.75" width="30" height="21"/>
    <object id="2" x="14" y="26.75" width="24" height="45.25"/>
    <object id="5" x="38.25" y="20.25" width="33.5" height="52"/>
   </objectgroup>
  </tile>
  <tile id="395">
   <objectgroup draworder="index" id="2">
    <object id="1" x="0" y="0.25" width="33" height="44.25"/>
   </objectgroup>
  </tile>
  <tile id="396">
   <objectgroup draworder="index" id="2">
    <object id="1" x="65" y="23" width="7.5" height="50.5"/>
   </objectgroup>
  </tile>
  <tile id="397">
   <objectgroup draworder="index" id="2">
    <object id="1" x="-1" y="22" width="10" height="51.5"/>
   </objectgroup>
  </tile>
  <tile id="402">
   <objectgroup draworder="index" id="2">
    <object id="1" x="37.5" y="22.5" width="16.5" height="48.5"/>
   </objectgroup>
  </tile>
  <tile id="404">
   <objectgroup draworder="index" id="2">
    <object id="1" x="9.5" y="23" width="63" height="48"/>
   </objectgroup>
  </tile>
  <tile id="406">
   <objectgroup draworder="index" id="2">
    <object id="1" x="32" y="50.5" width="41.5" height="22"/>
   </objectgroup>
  </tile>
  <tile id="407">
   <objectgroup draworder="index" id="2">
    <object id="1" x="-1.5" y="48">
     <polygon points="0,0 63.5,25 -3,25.5"/>
    </object>
   </objectgroup>
  </tile>
  <tile id="411">
   <objectgroup>
    <object id="1" x="0" y="0" width="72" height="72"/>
   </objectgroup>
  </tile>
  <tile id="412">
   <objectgroup>
    <object id="1" x="0" y="0" width="72" height="72"/>
   </objectgroup>
  </tile>
  <tile id="413">
   <objectgroup>
    <object id="1" x="0" y="0" width="72" height="72"/>
   </objectgroup>
  </tile>
  <tile id="414">
   <objectgroup>
    <object id="1" x="0" y="0" width="72" height="72"/>
   </objectgroup>
  </tile>
  <tile id="415">
   <objectgroup>
    <object id="1" x="0" y="0" width="72" height="72"/>
   </objectgroup>
  </tile>
  <tile id="416">
   <objectgroup>
    <object id="1" x="0" y="0" width="72" height="72"/>
   </objectgroup>
  </tile>
  <tile id="417">
   <objectgroup>
    <object id="1" x="0" y="0" width="72" height="72"/>
   </objectgroup>
  </tile>
  <tile id="418">
   <objectgroup>
    <object id="1" x="0" y="0" width="72" height="72"/>
   </objectgroup>
  </tile>
  <tile id="419">
   <objectgroup>
    <object id="1" x="0" y="0" width="72" height="72"/>
   </objectgroup>
  </tile>
  <tile id="420">
   <objectgroup draworder="index" id="2">
    <object id="1" x="0" y="0" width="46.5" height="72.75"/>
    <object id="2" x="0" y="0" width="72" height="72"/>
   </objectgroup>
  </tile>
  <tile id="421">
   <objectgroup draworder="index" id="2">
    <object id="1" x="44.75" y="-0.5" width="27" height="70.5"/>
    <object id="2" x="0" y="0" width="72" height="72"/>
   </objectgroup>
  </tile>
  <tile id="422">
   <objectgroup draworder="index" id="2">
    <object id="1" x="0.25" y="-1.25" width="21.75" height="76.75"/>
   </objectgroup>
  </tile>
  <tile id="426">
   <objectgroup draworder="index" id="2">
    <object id="1" x="14.25" y="-0.25" width="24.75" height="72.75"/>
    <object id="2" x="39.25" y="-0.5" width="32.25" height="73.25"/>
   </objectgroup>
  </tile>
  <tile id="427">
   <objectgroup draworder="index" id="2">
    <object id="1" x="0.75" y="24.5" width="24.75" height="47.25"/>
   </objectgroup>
  </tile>
  <tile id="428">
   <objectgroup draworder="index" id="2">
    <object id="1" x="64.5" y="-1.5" width="8.5" height="76"/>
   </objectgroup>
  </tile>
  <tile id="429">
   <objectgroup draworder="index" id="3">
    <object id="2" x="0.5" y="20.5" width="45" height="52"/>
    <object id="3" x="-0.5" y="-1.5" width="9" height="21.5"/>
   </objectgroup>
  </tile>
  <tile id="431">
   <objectgroup draworder="index" id="2">
    <object id="1" x="-0.25" y="19.25" width="20.25" height="52.5"/>
    <object id="2" x="18.5" y="22.5" width="53" height="50"/>
   </objectgroup>
  </tile>
  <tile id="432">
   <objectgroup draworder="index" id="2">
    <object id="1" x="0.5" y="20.5" width="45.5" height="51"/>
   </objectgroup>
  </tile>
  <tile id="434">
   <objectgroup draworder="index" id="3">
    <object id="5" x="-0.5" y="20" width="58" height="52.5"/>
    <object id="6" x="35.5" y="-1" width="21" height="20.5"/>
   </objectgroup>
  </tile>
  <tile id="436">
   <objectgroup draworder="index" id="2">
    <object id="1" x="9.5" y="-1" width="63.5" height="73.5"/>
   </objectgroup>
  </tile>
  <tile id="438">
   <objectgroup draworder="index" id="2">
    <object id="1" x="31" y="0" width="41" height="73"/>
   </objectgroup>
  </tile>
  <tile id="439">
   <objectgroup draworder="index" id="2">
    <object id="1" x="1" y="-1.5">
     <polygon points="0,0 72.5,5.5 71,31 -1,29.5 17.5,44.5 20,67.5 -1.5,78.5"/>
    </object>
   </objectgroup>
  </tile>
  <tile id="443">
   <objectgroup>
    <object id="1" x="0" y="0" width="72" height="72"/>
   </objectgroup>
  </tile>
  <tile id="444">
   <objectgroup>
    <object id="1" x="0" y="0" width="72" height="72"/>
   </objectgroup>
  </tile>
  <tile id="445">
   <objectgroup>
    <object id="1" x="0" y="0" width="72" height="72"/>
   </objectgroup>
  </tile>
  <tile id="446">
   <objectgroup>
    <object id="1" x="0" y="0" width="72" height="72"/>
   </objectgroup>
  </tile>
  <tile id="447">
   <objectgroup>
    <object id="1" x="0" y="0" width="72" height="72"/>
   </objectgroup>
  </tile>
  <tile id="448">
   <objectgroup>
    <object id="1" x="0" y="0" width="72" height="72"/>
   </objectgroup>
  </tile>
  <tile id="449">
   <objectgroup>
    <object id="1" x="0" y="0" width="72" height="72"/>
   </objectgroup>
  </tile>
  <tile id="450">
   <objectgroup>
    <object id="1" x="0" y="0" width="72" height="72"/>
   </objectgroup>
  </tile>
  <tile id="451">
   <objectgroup>
    <object id="1" x="0" y="0" width="72" height="72"/>
   </objectgroup>
  </tile>
  <tile id="452">
   <objectgroup draworder="index" id="3">
    <object id="5" x="0.25" y="0.25" width="29.5" height="72"/>
    <object id="6" x="30.25" y="17" width="41.75" height="53.75"/>
    <object id="7" x="29.75" y="0" width="17.75" height="17"/>
    <object id="8" x="0" y="0" width="72" height="72"/>
   </objectgroup>
  </tile>
  <tile id="453">
   <objectgroup draworder="index" id="2">
    <object id="1" x="-0.5" y="16.5" width="72.5" height="55"/>
    <object id="2" x="0" y="0" width="72" height="72"/>
   </objectgroup>
  </tile>
  <tile id="454">
   <objectgroup draworder="index" id="2">
    <object id="1" x="-1" y="15.5" width="43" height="58.5"/>
   </objectgroup>
  </tile>
  <tile id="458">
   <objectgroup draworder="index" id="2">
    <object id="1" x="14.25" y="-0.75" width="25" height="73"/>
   </objectgroup>
  </tile>
  <tile id="461">
   <objectgroup draworder="index" id="2">
    <object id="1" x="0.5" y="-1.5" width="45.5" height="19.5"/>
    <object id="2" x="26.5" y="-4" width="19.5" height="65"/>
   </objectgroup>
  </tile>
  <tile id="463">
   <objectgroup draworder="index" id="2">
    <object id="1" x="0" y="-0.25" width="20.5" height="65"/>
    <object id="2" x="20" y="-0.25" width="52.5" height="72.5"/>
    <object id="3" x="-0.5" y="65" width="21" height="6.75"/>
   </objectgroup>
  </tile>
  <tile id="464">
   <objectgroup draworder="index" id="2">
    <object id="1" x="0.25" y="-0.25" width="46.75" height="72"/>
   </objectgroup>
  </tile>
  <tile id="468">
   <objectgroup draworder="index" id="2">
    <object id="1" x="58.5" y="-1.5" width="15" height="75.5"/>
   </objectgroup>
  </tile>
  <tile id="470">
   <objectgroup draworder="index" id="2">
    <object id="1" x="31.5" y="-1" width="40.5" height="37"/>
   </objectgroup>
  </tile>
  <tile id="471">
   <objectgroup>
    <object id="1" x="0" y="0" width="72" height="72"/>
   </objectgroup>
  </tile>
  <tile id="472">
   <objectgroup>
    <object id="1" x="0" y="0" width="72" height="72"/>
   </objectgroup>
  </tile>
  <tile id="473">
   <objectgroup>
    <object id="1" x="0" y="0" width="72" height="72"/>
   </objectgroup>
  </tile>
  <tile id="474">
   <objectgroup>
    <object id="1" x="0" y="0" width="72" height="72"/>
   </objectgroup>
  </tile>
  <tile id="475">
   <objectgroup>
    <object id="1" x="0" y="0" width="72" height="72"/>
   </objectgroup>
  </tile>
  <tile id="476">
   <objectgroup>
    <object id="1" x="0" y="0" width="72" height="72"/>
   </objectgroup>
  </tile>
  <tile id="477">
   <objectgroup>
    <object id="1" x="0" y="0" width="72" height="72"/>
   </objectgroup>
  </tile>
  <tile id="478">
   <objectgroup>
    <object id="1" x="0" y="0" width="72" height="72"/>
   </objectgroup>
  </tile>
  <tile id="479">
   <objectgroup>
    <object id="1" x="0" y="0" width="72" height="72"/>
   </objectgroup>
  </tile>
  <tile id="480">
   <objectgroup>
    <object id="1" x="0" y="0" width="72" height="72"/>
   </objectgroup>
  </tile>
  <tile id="481">
   <objectgroup>
    <object id="1" x="0" y="0" width="72" height="72"/>
   </objectgroup>
  </tile>
  <tile id="482">
   <objectgroup>
    <object id="1" x="0" y="0" width="72" height="72"/>
   </objectgroup>
  </tile>
  <tile id="483">
   <objectgroup>
    <object id="1" x="0" y="0" width="72" height="72"/>
   </objectgroup>
  </tile>
  <tile id="484">
   <objectgroup>
    <object id="1" x="0" y="0" width="72" height="72"/>
   </objectgroup>
  </tile>
  <tile id="485">
   <objectgroup>
    <object id="1" x="0" y="0" width="72" height="72"/>
   </objectgroup>
  </tile>
  <tile id="486">
   <objectgroup>
    <object id="1" x="0" y="0" width="72" height="72"/>
   </objectgroup>
  </tile>
  <tile id="487">
   <objectgroup>
    <object id="1" x="0" y="0" width="72" height="72"/>
   </objectgroup>
  </tile>
  <tile id="488">
   <objectgroup>
    <object id="1" x="0" y="0" width="72" height="72"/>
   </objectgroup>
  </tile>
  <tile id="489">
   <objectgroup>
    <object id="1" x="0" y="0" width="72" height="72"/>
   </objectgroup>
  </tile>
  <tile id="490">
   <objectgroup>
    <object id="1" x="0" y="0" width="72" height="72"/>
   </objectgroup>
  </tile>
  <tile id="491">
   <objectgroup draworder="index" id="2">
    <object id="1" x="0" y="36.5" width="26.25" height="35"/>
   </objectgroup>
  </tile>
  <tile id="495">
   <objectgroup>
    <object id="1" x="0" y="0" width="72" height="72"/>
   </objectgroup>
  </tile>
  <tile id="496">
   <objectgroup draworder="index" id="2">
    <object id="1" x="0.25" y="0" width="45.5" height="72"/>
   </objectgroup>
  </tile>
  <tile id="499">
   <objectgroup draworder="index" id="2">
    <object id="1" x="59" y="34" width="13.5" height="38"/>
   </objectgroup>
  </tile>
  <tile id="500">
   <objectgroup draworder="index" id="2">
    <object id="1" x="0.75" y="35" width="70.5" height="36.75"/>
    <object id="2" x="57" y="0" width="15" height="72.25"/>
    <object id="3" x="16.5" y="101"/>
   </objectgroup>
  </tile>
  <tile id="503">
   <objectgroup>
    <object id="1" x="0" y="0" width="72" height="72"/>
   </objectgroup>
  </tile>
  <tile id="504">
   <objectgroup>
    <object id="1" x="0" y="0" width="72" height="72"/>
   </objectgroup>
  </tile>
  <tile id="505">
   <objectgroup>
    <object id="1" x="0" y="0" width="72" height="72"/>
   </objectgroup>
  </tile>
  <tile id="506">
   <objectgroup>
    <object id="1" x="0" y="0" width="72" height="72"/>
   </objectgroup>
  </tile>
  <tile id="507">
   <objectgroup>
    <object id="1" x="0" y="0" width="72" height="72"/>
   </objectgroup>
  </tile>
  <tile id="508">
   <objectgroup>
    <object id="1" x="0" y="0" width="72" height="72"/>
   </objectgroup>
  </tile>
  <tile id="509">
   <objectgroup>
    <object id="1" x="0" y="0" width="72" height="72"/>
   </objectgroup>
  </tile>
  <tile id="510">
   <objectgroup>
    <object id="1" x="0" y="0" width="72" height="72"/>
   </objectgroup>
  </tile>
  <tile id="511">
   <objectgroup>
    <object id="1" x="0" y="0" width="72" height="72"/>
   </objectgroup>
  </tile>
  <tile id="512">
   <objectgroup>
    <object id="1" x="0" y="0" width="72" height="72"/>
   </objectgroup>
  </tile>
  <tile id="513">
   <objectgroup>
    <object id="1" x="0" y="0" width="72" height="72"/>
   </objectgroup>
  </tile>
  <tile id="514">
   <objectgroup>
    <object id="1" x="0" y="0" width="72" height="72"/>
   </objectgroup>
  </tile>
  <tile id="515">
   <objectgroup>
    <object id="1" x="0" y="0" width="72" height="72"/>
   </objectgroup>
  </tile>
  <tile id="516">
   <objectgroup>
    <object id="1" x="0" y="0" width="72" height="72"/>
   </objectgroup>
  </tile>
  <tile id="517">
   <objectgroup>
    <object id="1" x="0" y="0" width="72" height="72"/>
   </objectgroup>
  </tile>
  <tile id="518">
   <objectgroup>
    <object id="1" x="0" y="0" width="72" height="72"/>
   </objectgroup>
  </tile>
  <tile id="519">
   <objectgroup>
    <object id="1" x="0" y="0" width="72" height="72"/>
   </objectgroup>
  </tile>
  <tile id="520">
   <objectgroup>
    <object id="1" x="0" y="0" width="72" height="72"/>
   </objectgroup>
  </tile>
  <tile id="521">
   <objectgroup>
    <object id="1" x="0" y="0" width="72" height="72"/>
   </objectgroup>
  </tile>
  <tile id="522">
   <objectgroup>
    <object id="1" x="0" y="0" width="72" height="72"/>
   </objectgroup>
  </tile>
  <tile id="523">
   <objectgroup draworder="index" id="3">
    <object id="2" x="-0.25" y="-0.25" width="25" height="72.75"/>
    <object id="3" x="22.75" y="26.25" width="49.5" height="46.75"/>
   </objectgroup>
  </tile>
  <tile id="524">
   <objectgroup draworder="index" id="2">
    <object id="1" x="-0.25" y="26.75" width="57" height="45.75"/>
    <object id="2" x="51.5" y="61.75" width="21" height="10.75"/>
   </objectgroup>
  </tile>
  <tile id="525">
   <objectgroup draworder="index" id="2">
    <object id="1" x="-0.5" y="62.25" width="72.5" height="9.75"/>
   </objectgroup>
  </tile>
  <tile id="526">
   <objectgroup draworder="index" id="2">
    <object id="1" x="-0.25" y="62.75" width="60.75" height="9.75"/>
    <object id="2" x="42.75" y="23.75" width="29.75" height="49"/>
   </objectgroup>
  </tile>
  <tile id="527">
   <objectgroup>
    <object id="1" x="0" y="0" width="72" height="72"/>
   </objectgroup>
  </tile>
  <tile id="528">
   <objectgroup draworder="index" id="2">
    <object id="1" x="-0.75" y="-0.75" width="46" height="75"/>
    <object id="2" x="27.25" y="23.5" width="44.75" height="50.75"/>
   </objectgroup>
  </tile>
  <tile id="529">
   <objectgroup draworder="index" id="2">
    <object id="1" x="-0.5" y="24" width="17" height="48.25"/>
    <object id="2" x="9.75" y="60" width="61.25" height="11.75"/>
   </objectgroup>
  </tile>
  <tile id="530">
   <objectgroup draworder="index" id="2">
    <object id="1" x="-1.25" y="62" width="74.25" height="10.5"/>
   </objectgroup>
  </tile>
  <tile id="531">
   <objectgroup draworder="index" id="2">
    <object id="1" x="0" y="24.5" width="19.5" height="48"/>
    <object id="2" x="18.25" y="26" width="54.25" height="46.5"/>
    <object id="3" x="57" y="-0.5" width="15.5" height="28.25"/>
   </objectgroup>
  </tile>
  <tile id="532">
   <objectgroup>
    <object id="1" x="0" y="0" width="72" height="72"/>
   </objectgroup>
  </tile>
  <tile id="533">
   <objectgroup draworder="index" id="2">
    <object id="1" x="-0.5" y="0" width="9" height="72"/>
    <object id="2" x="5" y="30" width="67.5" height="42"/>
   </objectgroup>
  </tile>
  <tile id="534">
   <objectgroup draworder="index" id="2">
    <object id="1" x="-0.5" y="30" width="72.5" height="43.5"/>
    <object id="2" x="67" y="0" width="6.5" height="30"/>
   </objectgroup>
  </tile>
  <tile id="535">
   <objectgroup>
    <object id="1" x="0" y="0" width="72" height="72"/>
   </objectgroup>
  </tile>
  <tile id="536">
   <objectgroup>
    <object id="1" x="0" y="0" width="72" height="72"/>
   </objectgroup>
  </tile>
  <tile id="537">
   <objectgroup>
    <object id="1" x="0" y="0" width="72" height="72"/>
   </objectgroup>
  </tile>
  <tile id="538">
   <objectgroup>
    <object id="1" x="0" y="0" width="72" height="72"/>
   </objectgroup>
  </tile>
  <tile id="539">
   <objectgroup>
    <object id="1" x="0" y="0" width="72" height="72"/>
   </objectgroup>
  </tile>
  <tile id="540">
   <objectgroup>
    <object id="1" x="0" y="0" width="72" height="72"/>
   </objectgroup>
  </tile>
  <tile id="541">
   <objectgroup>
    <object id="1" x="0" y="0" width="72" height="72"/>
   </objectgroup>
  </tile>
  <tile id="542">
   <objectgroup>
    <object id="1" x="0" y="0" width="72" height="72"/>
   </objectgroup>
  </tile>
  <tile id="543">
   <objectgroup>
    <object id="1" x="0" y="0" width="72" height="72"/>
   </objectgroup>
  </tile>
  <tile id="544">
   <objectgroup>
    <object id="1" x="0" y="0" width="72" height="72"/>
   </objectgroup>
  </tile>
  <tile id="545">
   <objectgroup>
    <object id="1" x="0" y="0" width="72" height="72"/>
   </objectgroup>
  </tile>
  <tile id="546">
   <objectgroup>
    <object id="1" x="0" y="0" width="72" height="72"/>
   </objectgroup>
  </tile>
  <tile id="547">
   <objectgroup>
    <object id="1" x="0" y="0" width="72" height="72"/>
   </objectgroup>
  </tile>
  <tile id="548">
   <objectgroup>
    <object id="1" x="0" y="0" width="72" height="72"/>
   </objectgroup>
  </tile>
  <tile id="549">
   <objectgroup>
    <object id="1" x="0" y="0" width="72" height="72"/>
   </objectgroup>
  </tile>
  <tile id="550">
   <objectgroup>
    <object id="1" x="0" y="0" width="72" height="72"/>
   </objectgroup>
  </tile>
  <tile id="551">
   <objectgroup>
    <object id="1" x="0" y="0" width="72" height="72"/>
   </objectgroup>
  </tile>
  <tile id="552">
   <objectgroup>
    <object id="1" x="0" y="0" width="72" height="72"/>
   </objectgroup>
  </tile>
  <tile id="553">
   <objectgroup>
    <object id="1" x="0" y="0" width="72" height="72"/>
   </objectgroup>
  </tile>
  <tile id="554">
   <objectgroup>
    <object id="1" x="0" y="0" width="72" height="72"/>
   </objectgroup>
  </tile>
  <tile id="555">
   <objectgroup>
    <object id="1" x="0" y="0" width="72" height="72"/>
   </objectgroup>
  </tile>
  <tile id="556">
   <objectgroup>
    <object id="1" x="0" y="0" width="72" height="72"/>
   </objectgroup>
  </tile>
  <tile id="557">
   <objectgroup>
    <object id="1" x="0" y="0" width="72" height="72"/>
   </objectgroup>
  </tile>
  <tile id="558">
   <objectgroup>
    <object id="1" x="0" y="0" width="72" height="72"/>
   </objectgroup>
  </tile>
  <tile id="559">
   <objectgroup>
    <object id="1" x="0" y="0" width="72" height="72"/>
   </objectgroup>
  </tile>
  <tile id="560">
   <objectgroup>
    <object id="1" x="0" y="0" width="72" height="72"/>
   </objectgroup>
  </tile>
  <tile id="561">
   <objectgroup>
    <object id="1" x="0" y="0" width="72" height="72"/>
   </objectgroup>
  </tile>
  <tile id="562">
   <objectgroup>
    <object id="1" x="0" y="0" width="72" height="72"/>
   </objectgroup>
  </tile>
  <tile id="563">
   <objectgroup>
    <object id="1" x="0" y="0" width="72" height="72"/>
   </objectgroup>
  </tile>
  <tile id="564">
   <objectgroup>
    <object id="1" x="0" y="0" width="72" height="72"/>
   </objectgroup>
  </tile>
  <tile id="565">
   <objectgroup>
    <object id="1" x="0" y="0" width="72" height="72"/>
   </objectgroup>
  </tile>
  <tile id="566">
   <objectgroup>
    <object id="1" x="0" y="0" width="72" height="72"/>
   </objectgroup>
  </tile>
  <tile id="567">
   <objectgroup>
    <object id="1" x="0" y="0" width="72" height="72"/>
   </objectgroup>
  </tile>
  <tile id="568">
   <objectgroup>
    <object id="1" x="0" y="0" width="72" height="72"/>
   </objectgroup>
  </tile>
  <tile id="569">
   <objectgroup>
    <object id="1" x="0" y="0" width="72" height="72"/>
   </objectgroup>
  </tile>
  <tile id="570">
   <objectgroup>
    <object id="1" x="0" y="0" width="72" height="72"/>
   </objectgroup>
  </tile>
  <tile id="571">
   <objectgroup>
    <object id="1" x="0" y="0" width="72" height="72"/>
   </objectgroup>
  </tile>
  <tile id="572">
   <objectgroup>
    <object id="1" x="0" y="0" width="72" height="72"/>
   </objectgroup>
  </tile>
  <tile id="573">
   <objectgroup>
    <object id="1" x="0" y="0" width="72" height="72"/>
   </objectgroup>
  </tile>
  <tile id="574">
   <objectgroup>
    <object id="1" x="0" y="0" width="72" height="72"/>
   </objectgroup>
  </tile>
  <tile id="575">
   <objectgroup>
    <object id="1" x="0" y="0" width="72" height="72"/>
   </objectgroup>
  </tile>
  <tile id="576">
   <objectgroup>
    <object id="1" x="0" y="0" width="72" height="72"/>
   </objectgroup>
  </tile>
  <tile id="577">
   <objectgroup>
    <object id="1" x="0" y="0" width="72" height="72"/>
   </objectgroup>
  </tile>
  <tile id="578">
   <objectgroup>
    <object id="1" x="0" y="0" width="72" height="72"/>
   </objectgroup>
  </tile>
  <tile id="579">
   <objectgroup>
    <object id="1" x="0" y="0" width="72" height="72"/>
   </objectgroup>
  </tile>
  <tile id="580">
   <objectgroup>
    <object id="1" x="0" y="0" width="72" height="72"/>
   </objectgroup>
  </tile>
  <tile id="581">
   <objectgroup>
    <object id="1" x="0" y="0" width="72" height="72"/>
   </objectgroup>
  </tile>
  <tile id="582">
   <objectgroup>
    <object id="1" x="0" y="0" width="72" height="72"/>
   </objectgroup>
  </tile>
  <tile id="583">
   <objectgroup>
    <object id="1" x="0" y="0" width="72" height="72"/>
   </objectgroup>
  </tile>
  <tile id="584">
   <objectgroup>
    <object id="1" x="0" y="0" width="72" height="72"/>
   </objectgroup>
  </tile>
  <tile id="585">
   <objectgroup>
    <object id="1" x="0" y="0" width="72" height="72"/>
   </objectgroup>
  </tile>
  <tile id="586">
   <objectgroup>
    <object id="1" x="0" y="0" width="72" height="72"/>
   </objectgroup>
  </tile>
  <tile id="587">
   <objectgroup draworder="index" id="2">
    <object id="1" x="0" y="0" width="72" height="72"/>
   </objectgroup>
  </tile>
  <tile id="588">
   <objectgroup>
    <object id="1" x="0" y="0" width="72" height="72"/>
   </objectgroup>
  </tile>
  <tile id="589">
   <objectgroup>
    <object id="1" x="0" y="0" width="72" height="72"/>
   </objectgroup>
  </tile>
  <tile id="590">
   <objectgroup>
    <object id="1" x="0" y="0" width="72" height="72"/>
   </objectgroup>
  </tile>
  <tile id="591">
   <objectgroup>
    <object id="1" x="0" y="0" width="72" height="72"/>
   </objectgroup>
  </tile>
  <tile id="592">
   <objectgroup>
    <object id="1" x="0" y="0" width="72" height="72"/>
   </objectgroup>
  </tile>
  <tile id="593">
   <objectgroup>
    <object id="1" x="0" y="0" width="72" height="72"/>
   </objectgroup>
  </tile>
  <tile id="594">
   <objectgroup>
    <object id="1" x="0" y="0" width="72" height="72"/>
   </objectgroup>
  </tile>
  <tile id="595">
   <objectgroup>
    <object id="1" x="0" y="0" width="72" height="72"/>
   </objectgroup>
  </tile>
  <tile id="596">
   <objectgroup>
    <object id="1" x="0" y="0" width="72" height="72"/>
   </objectgroup>
  </tile>
  <tile id="597">
   <objectgroup>
    <object id="1" x="0" y="0" width="72" height="72"/>
   </objectgroup>
  </tile>
  <tile id="598">
   <objectgroup>
    <object id="1" x="0" y="0" width="72" height="72"/>
   </objectgroup>
  </tile>
  <tile id="599">
   <objectgroup>
    <object id="1" x="0" y="0" width="72" height="72"/>
   </objectgroup>
  </tile>
  <tile id="600">
   <objectgroup>
    <object id="1" x="0" y="0" width="72" height="72"/>
   </objectgroup>
  </tile>
  <tile id="601">
   <objectgroup>
    <object id="1" x="0" y="0" width="72" height="72"/>
   </objectgroup>
  </tile>
  <tile id="602">
   <objectgroup>
    <object id="1" x="0" y="0" width="72" height="72"/>
   </objectgroup>
  </tile>
  <tile id="603">
   <objectgroup>
    <object id="1" x="0" y="0" width="72" height="72"/>
   </objectgroup>
  </tile>
  <tile id="604">
   <objectgroup>
    <object id="1" x="0" y="0" width="72" height="72"/>
   </objectgroup>
  </tile>
  <tile id="605">
   <objectgroup>
    <object id="1" x="0" y="0" width="72" height="72"/>
   </objectgroup>
  </tile>
  <tile id="606">
   <objectgroup>
    <object id="1" x="0" y="0" width="72" height="72"/>
   </objectgroup>
  </tile>
  <tile id="607">
   <objectgroup>
    <object id="1" x="0" y="0" width="72" height="72"/>
   </objectgroup>
  </tile>
 </tileset>
 <layer id="1" name="Tile Layer 1" width="32" height="19">
  <data encoding="csv">
1,2,3,4,5,6,7,8,9,10,11,12,13,14,15,16,17,18,19,20,21,22,23,24,25,26,27,28,29,30,31,32,
33,34,35,36,37,38,39,40,41,42,43,44,45,46,47,48,49,50,51,52,53,54,55,56,57,58,59,60,61,62,63,64,
65,66,67,68,69,70,71,72,73,74,75,76,77,78,79,80,81,82,83,84,85,86,87,88,89,90,91,92,93,94,95,96,
97,98,99,100,101,102,103,104,105,106,107,108,109,110,111,112,113,114,115,116,117,118,119,120,121,122,123,124,125,126,127,128,
129,130,131,132,133,134,135,136,137,138,139,140,141,142,143,144,145,146,147,148,149,150,151,152,153,154,155,156,157,158,159,160,
161,162,163,164,165,166,167,168,169,170,171,172,173,174,175,176,177,178,179,180,181,182,183,184,185,186,187,188,189,190,191,192,
193,194,195,196,197,198,199,200,201,202,203,204,205,206,207,208,209,210,211,212,213,214,215,216,217,218,219,220,221,222,223,224,
225,226,227,228,229,230,231,232,233,234,235,236,237,238,239,240,241,242,243,244,245,246,247,248,249,250,251,252,253,254,255,256,
257,258,259,260,261,262,263,264,265,266,267,268,269,270,271,272,273,274,275,276,277,278,279,280,281,282,283,284,285,286,287,288,
289,290,291,292,293,294,295,296,297,298,299,300,301,302,303,304,305,306,307,308,309,310,311,312,313,314,315,316,317,318,319,320,
321,322,323,324,325,326,327,328,329,330,331,332,333,334,335,336,337,338,339,340,341,342,343,344,345,346,347,348,349,350,351,352,
353,354,355,356,357,358,359,360,361,362,363,364,365,366,367,368,369,370,371,372,373,374,375,376,377,378,379,380,381,382,383,384,
385,386,387,388,389,390,391,392,393,394,395,396,397,398,399,400,401,402,403,404,405,406,407,408,409,410,411,412,413,414,415,416,
417,418,419,420,421,422,423,424,425,426,427,428,429,430,431,432,433,434,435,436,437,438,439,440,441,442,443,444,445,446,447,448,
449,450,451,452,453,454,455,456,457,458,459,460,461,462,463,464,465,466,467,468,469,470,471,472,473,474,475,476,477,478,479,480,
481,482,483,484,485,486,487,488,489,490,491,492,493,494,495,496,497,498,499,500,501,502,503,504,505,506,507,508,509,510,511,512,
513,514,515,516,517,518,519,520,521,522,523,524,525,526,527,528,529,530,531,532,533,534,535,536,537,538,539,540,541,542,543,544,
545,546,547,548,549,550,551,552,553,554,555,556,557,558,559,560,561,562,563,564,565,566,567,568,569,570,571,572,573,574,575,576,
577,578,579,580,581,582,583,584,585,586,587,588,589,590,591,592,593,594,595,596,597,598,599,600,601,602,603,604,605,606,607,608
</data>
 </layer>
</map>
