<?xml version="1.0" encoding="UTF-8"?>
<map version="1.10" tiledversion="1.12.1" orientation="orthogonal" renderorder="right-down" width="30" height="29" tilewidth="72" tileheight="72" infinite="0" nextlayerid="6" nextobjectid="1">
 <tileset firstgid="1" name="map1" tilewidth="72" tileheight="72" tilecount="870" columns="30">
  <image source="../tiles/world1/EnhanceMap1.png" width="2160" height="2088"/>
  <tile id="0">
   <objectgroup>
    <object id="1" x="0" y="0" width="72" height="72"/>
   </objectgroup>
  </tile>
  <tile id="1">
   <objectgroup>
    <object id="1" x="0" y="0" width="72" height="72"/>
   </objectgroup>
  </tile>
  <tile id="2">
   <objectgroup>
    <object id="1" x="0" y="0" width="72" height="72"/>
   </objectgroup>
  </tile>
  <tile id="3">
   <objectgroup>
    <object id="1" x="0" y="0" width="72" height="72"/>
   </objectgroup>
  </tile>
  <tile id="4">
   <objectgroup>
    <object id="1" x="0" y="0" width="72" height="72"/>
   </objectgroup>
  </tile>
  <tile id="5">
   <objectgroup>
    <object id="1" x="0" y="0" width="72" height="72"/>
   </objectgroup>
  </tile>
  <tile id="6">
   <objectgroup>
    <object id="1" x="0" y="0" width="72" height="72"/>
   </objectgroup>
  </tile>
  <tile id="7">
   <objectgroup>
    <object id="1" x="0" y="0" width="72" height="72"/>
   </objectgroup>
  </tile>
  <tile id="8">
   <objectgroup>
    <object id="1" x="0" y="0" width="72" height="72"/>
   </objectgroup>
  </tile>
  <tile id="9">
   <objectgroup>
    <object id="1" x="0" y="0" width="72" height="72"/>
   </objectgroup>
  </tile>
  <tile id="10">
   <objectgroup>
    <object id="1" x="0" y="0" width="72" height="72"/>
   </objectgroup>
  </tile>
  <tile id="11">
   <objectgroup>
    <object id="1" x="0" y="0" width="72" height="72"/>
   </objectgroup>
  </tile>
  <tile id="12">
   <objectgroup>
    <object id="1" x="0" y="0" width="72" height="72"/>
   </objectgroup>
  </tile>
  <tile id="13">
   <objectgroup>
    <object id="1" x="0" y="0" width="72" height="72"/>
   </objectgroup>
  </tile>
  <tile id="14">
   <objectgroup>
    <object id="1" x="0" y="0" width="72" height="72"/>
   </objectgroup>
  </tile>
  <tile id="15">
   <objectgroup>
    <object id="1" x="0" y="0" width="72" height="72"/>
   </objectgroup>
  </tile>
  <tile id="16">
   <objectgroup>
    <object id="1" x="0" y="0" width="72" height="72"/>
   </objectgroup>
  </tile>
  <tile id="17">
   <objectgroup>
    <object id="1" x="0" y="0" width="72" height="72"/>
   </objectgroup>
  </tile>
  <tile id="18">
   <objectgroup>
    <object id="1" x="0" y="0" width="72" height="72"/>
   </objectgroup>
  </tile>
  <tile id="19">
   <objectgroup>
    <object id="1" x="0" y="0" width="72" height="72"/>
   </objectgroup>
  </tile>
  <tile id="20">
   <objectgroup>
    <object id="1" x="0" y="0" width="72" height="72"/>
   </objectgroup>
  </tile>
  <tile id="21">
   <objectgroup>
    <object id="1" x="0" y="0" width="72" height="72"/>
   </objectgroup>
  </tile>
  <tile id="22">
   <objectgroup>
    <object id="1" x="0" y="0" width="72" height="72"/>
   </objectgroup>
  </tile>
  <tile id="23">
   <objectgroup>
    <object id="1" x="0" y="0" width="72" height="72"/>
   </objectgroup>
  </tile>
  <tile id="24">
   <objectgroup>
    <object id="1" x="0" y="0" width="72" height="72"/>
   </objectgroup>
  </tile>
  <tile id="25">
   <objectgroup>
    <object id="1" x="0" y="0" width="72" height="72"/>
   </objectgroup>
  </tile>
  <tile id="26">
   <objectgroup>
    <object id="1" x="0" y="0" width="72" height="72"/>
   </objectgroup>
  </tile>
  <tile id="27">
   <objectgroup>
    <object id="1" x="0" y="0" width="72" height="72"/>
   </objectgroup>
  </tile>
  <tile id="28">
   <objectgroup>
    <object id="1" x="0" y="0" width="72" height="72"/>
   </objectgroup>
  </tile>
  <tile id="29">
   <objectgroup>
    <object id="1" x="0" y="0" width="72" height="72"/>
   </objectgroup>
  </tile>
  <tile id="30">
   <objectgroup>
    <object id="1" x="0" y="0" width="72" height="72"/>
   </objectgroup>
  </tile>
  <tile id="31">
   <objectgroup>
    <object id="1" x="0" y="0" width="72" height="72"/>
   </objectgroup>
  </tile>
  <tile id="32">
   <objectgroup>
    <object id="1" x="0" y="0" width="72" height="72"/>
   </objectgroup>
  </tile>
  <tile id="33">
   <objectgroup>
    <object id="1" x="0" y="0" width="72" height="72"/>
   </objectgroup>
  </tile>
  <tile id="34">
   <objectgroup>
    <object id="1" x="0" y="0" width="72" height="72"/>
   </objectgroup>
  </tile>
  <tile id="35">
   <objectgroup>
    <object id="1" x="0" y="0" width="72" height="72"/>
   </objectgroup>
  </tile>
  <tile id="36">
   <objectgroup>
    <object id="1" x="0" y="0" width="72" height="72"/>
   </objectgroup>
  </tile>
  <tile id="37">
   <objectgroup>
    <object id="1" x="0" y="0" width="72" height="72"/>
   </objectgroup>
  </tile>
  <tile id="38">
   <objectgroup>
    <object id="1" x="0" y="0" width="72" height="72"/>
   </objectgroup>
  </tile>
  <tile id="39">
   <objectgroup>
    <object id="1" x="0" y="0" width="72" height="72"/>
   </objectgroup>
  </tile>
  <tile id="40">
   <objectgroup>
    <object id="1" x="0" y="0" width="72" height="72"/>
   </objectgroup>
  </tile>
  <tile id="41">
   <objectgroup>
    <object id="1" x="0" y="0" width="72" height="72"/>
   </objectgroup>
  </tile>
  <tile id="42">
   <objectgroup>
    <object id="1" x="0" y="0" width="72" height="72"/>
   </objectgroup>
  </tile>
  <tile id="43">
   <objectgroup>
    <object id="1" x="0" y="0" width="72" height="72"/>
   </objectgroup>
  </tile>
  <tile id="44">
   <objectgroup>
    <object id="1" x="0" y="0" width="72" height="72"/>
   </objectgroup>
  </tile>
  <tile id="45">
   <objectgroup>
    <object id="1" x="0" y="0" width="72" height="72"/>
   </objectgroup>
  </tile>
  <tile id="46">
   <objectgroup>
    <object id="1" x="0" y="0" width="72" height="72"/>
   </objectgroup>
  </tile>
  <tile id="47">
   <objectgroup>
    <object id="1" x="0" y="0" width="72" height="72"/>
   </objectgroup>
  </tile>
  <tile id="48">
   <objectgroup>
    <object id="1" x="0" y="0" width="72" height="72"/>
   </objectgroup>
  </tile>
  <tile id="49">
   <objectgroup>
    <object id="1" x="0" y="0" width="72" height="72"/>
   </objectgroup>
  </tile>
  <tile id="50">
   <objectgroup>
    <object id="1" x="0" y="0" width="72" height="72"/>
   </objectgroup>
  </tile>
  <tile id="51">
   <objectgroup>
    <object id="1" x="0" y="0" width="72" height="72"/>
   </objectgroup>
  </tile>
  <tile id="52">
   <objectgroup>
    <object id="1" x="0" y="0" width="72" height="72"/>
   </objectgroup>
  </tile>
  <tile id="53">
   <objectgroup>
    <object id="1" x="0" y="0" width="72" height="72"/>
   </objectgroup>
  </tile>
  <tile id="54">
   <objectgroup>
    <object id="1" x="0" y="0" width="72" height="72"/>
   </objectgroup>
  </tile>
  <tile id="55">
   <objectgroup>
    <object id="1" x="0" y="0" width="72" height="72"/>
   </objectgroup>
  </tile>
  <tile id="56">
   <objectgroup>
    <object id="1" x="0" y="0" width="72" height="72"/>
   </objectgroup>
  </tile>
  <tile id="57">
   <objectgroup>
    <object id="1" x="0" y="0" width="72" height="72"/>
   </objectgroup>
  </tile>
  <tile id="58">
   <objectgroup>
    <object id="1" x="0" y="0" width="72" height="72"/>
   </objectgroup>
  </tile>
  <tile id="59">
   <objectgroup>
    <object id="1" x="0" y="0" width="72" height="72"/>
   </objectgroup>
  </tile>
  <tile id="60">
   <objectgroup>
    <object id="1" x="0" y="0" width="72" height="72"/>
   </objectgroup>
  </tile>
  <tile id="61">
   <objectgroup>
    <object id="1" x="0" y="0" width="72" height="72"/>
   </objectgroup>
  </tile>
  <tile id="62">
   <objectgroup>
    <object id="1" x="0" y="0" width="72" height="72"/>
   </objectgroup>
  </tile>
  <tile id="63">
   <objectgroup>
    <object id="1" x="0" y="0" width="72" height="72"/>
   </objectgroup>
  </tile>
  <tile id="64">
   <objectgroup>
    <object id="1" x="0" y="0" width="72" height="72"/>
   </objectgroup>
  </tile>
  <tile id="65">
   <objectgroup>
    <object id="1" x="0" y="0" width="72" height="72"/>
   </objectgroup>
  </tile>
  <tile id="66">
   <objectgroup>
    <object id="1" x="0" y="0" width="72" height="72"/>
   </objectgroup>
  </tile>
  <tile id="67">
   <objectgroup>
    <object id="1" x="0" y="0" width="72" height="72"/>
   </objectgroup>
  </tile>
  <tile id="68">
   <objectgroup>
    <object id="1" x="0" y="0" width="72" height="72"/>
   </objectgroup>
  </tile>
  <tile id="69">
   <objectgroup>
    <object id="1" x="0" y="0" width="72" height="72"/>
   </objectgroup>
  </tile>
  <tile id="70">
   <objectgroup>
    <object id="1" x="0" y="0" width="72" height="72"/>
   </objectgroup>
  </tile>
  <tile id="71">
   <objectgroup>
    <object id="1" x="0" y="0" width="72" height="72"/>
   </objectgroup>
  </tile>
  <tile id="72">
   <objectgroup>
    <object id="1" x="0" y="0" width="72" height="72"/>
   </objectgroup>
  </tile>
  <tile id="73">
   <objectgroup>
    <object id="1" x="0" y="0" width="72" height="72"/>
   </objectgroup>
  </tile>
  <tile id="74">
   <objectgroup>
    <object id="1" x="0" y="0" width="72" height="72"/>
   </objectgroup>
  </tile>
  <tile id="75">
   <objectgroup>
    <object id="1" x="0" y="0" width="72" height="72"/>
   </objectgroup>
  </tile>
  <tile id="76">
   <objectgroup>
    <object id="1" x="0" y="0" width="72" height="72"/>
   </objectgroup>
  </tile>
  <tile id="77">
   <objectgroup>
    <object id="1" x="0" y="0" width="72" height="72"/>
   </objectgroup>
  </tile>
  <tile id="78">
   <objectgroup>
    <object id="1" x="0" y="0" width="72" height="72"/>
   </objectgroup>
  </tile>
  <tile id="79">
   <objectgroup>
    <object id="1" x="0" y="0" width="72" height="72"/>
   </objectgroup>
  </tile>
  <tile id="80">
   <objectgroup>
    <object id="1" x="0" y="0" width="72" height="72"/>
   </objectgroup>
  </tile>
  <tile id="81">
   <objectgroup>
    <object id="1" x="0" y="0" width="72" height="72"/>
   </objectgroup>
  </tile>
  <tile id="82">
   <objectgroup>
    <object id="1" x="0" y="0" width="72" height="72"/>
   </objectgroup>
  </tile>
  <tile id="83">
   <objectgroup>
    <object id="1" x="0" y="0" width="72" height="72"/>
   </objectgroup>
  </tile>
  <tile id="84">
   <objectgroup>
    <object id="1" x="0" y="0" width="72" height="72"/>
   </objectgroup>
  </tile>
  <tile id="85">
   <objectgroup>
    <object id="1" x="0" y="0" width="72" height="72"/>
   </objectgroup>
  </tile>
  <tile id="86">
   <objectgroup>
    <object id="1" x="0" y="0" width="72" height="72"/>
   </objectgroup>
  </tile>
  <tile id="87">
   <objectgroup>
    <object id="1" x="0" y="0" width="72" height="72"/>
   </objectgroup>
  </tile>
  <tile id="88">
   <objectgroup>
    <object id="1" x="0" y="0" width="72" height="72"/>
   </objectgroup>
  </tile>
  <tile id="89">
   <objectgroup>
    <object id="1" x="0" y="0" width="72" height="72"/>
   </objectgroup>
  </tile>
  <tile id="90">
   <objectgroup>
    <object id="1" x="0" y="0" width="72" height="72"/>
   </objectgroup>
  </tile>
  <tile id="91">
   <objectgroup>
    <object id="1" x="0" y="0" width="72" height="72"/>
   </objectgroup>
  </tile>
  <tile id="92">
   <objectgroup>
    <object id="1" x="0" y="0" width="72" height="72"/>
   </objectgroup>
  </tile>
  <tile id="93">
   <objectgroup>
    <object id="1" x="0" y="0" width="72" height="72"/>
   </objectgroup>
  </tile>
  <tile id="94">
   <objectgroup>
    <object id="1" x="0" y="0" width="72" height="72"/>
   </objectgroup>
  </tile>
  <tile id="95">
   <objectgroup>
    <object id="1" x="0" y="0" width="72" height="72"/>
   </objectgroup>
  </tile>
  <tile id="96">
   <objectgroup>
    <object id="1" x="0" y="0" width="72" height="72"/>
   </objectgroup>
  </tile>
  <tile id="97">
   <objectgroup>
    <object id="1" x="0" y="0" width="72" height="72"/>
   </objectgroup>
  </tile>
  <tile id="98">
   <objectgroup>
    <object id="1" x="0" y="0" width="72" height="72"/>
   </objectgroup>
  </tile>
  <tile id="99">
   <objectgroup>
    <object id="1" x="0" y="0" width="72" height="72"/>
   </objectgroup>
  </tile>
  <tile id="100">
   <objectgroup>
    <object id="1" x="0" y="0" width="72" height="72"/>
   </objectgroup>
  </tile>
  <tile id="101">
   <objectgroup>
    <object id="1" x="0" y="0" width="72" height="72"/>
   </objectgroup>
  </tile>
  <tile id="102">
   <objectgroup>
    <object id="1" x="0" y="0" width="72" height="72"/>
   </objectgroup>
  </tile>
  <tile id="103">
   <objectgroup>
    <object id="1" x="0" y="0" width="72" height="72"/>
   </objectgroup>
  </tile>
  <tile id="104">
   <objectgroup>
    <object id="1" x="0" y="0" width="72" height="72"/>
   </objectgroup>
  </tile>
  <tile id="105">
   <objectgroup>
    <object id="1" x="0" y="0" width="72" height="72"/>
   </objectgroup>
  </tile>
  <tile id="106">
   <objectgroup>
    <object id="1" x="0" y="0" width="72" height="72"/>
   </objectgroup>
  </tile>
  <tile id="107">
   <objectgroup>
    <object id="1" x="0" y="0" width="72" height="72"/>
   </objectgroup>
  </tile>
  <tile id="108">
   <objectgroup>
    <object id="1" x="0" y="0" width="72" height="72"/>
   </objectgroup>
  </tile>
  <tile id="109">
   <objectgroup>
    <object id="1" x="0" y="0" width="72" height="72"/>
   </objectgroup>
  </tile>
  <tile id="110">
   <objectgroup draworder="index" id="2">
    <object id="1" x="0" y="0" width="72" height="72"/>
   </objectgroup>
  </tile>
  <tile id="111">
   <objectgroup>
    <object id="1" x="0" y="0" width="73" height="42.6667"/>
   </objectgroup>
  </tile>
  <tile id="112">
   <objectgroup draworder="index" id="2">
    <object id="1" x="0" y="0" width="73" height="42.6667"/>
   </objectgroup>
  </tile>
  <tile id="113">
   <objectgroup>
    <object id="1" x="0" y="0" width="73" height="42.6667"/>
   </objectgroup>
  </tile>
  <tile id="114">
   <objectgroup>
    <object id="1" x="0" y="0" width="73" height="42.6667"/>
   </objectgroup>
  </tile>
  <tile id="115">
   <objectgroup draworder="index" id="2">
    <object id="1" x="-0.333333" y="35.3333">
     <polygon points="0,0 40,-34.6667 -2.66667,-35.3333"/>
    </object>
   </objectgroup>
  </tile>
  <tile id="117">
   <objectgroup>
    <object id="1" x="0" y="0" width="72" height="72"/>
   </objectgroup>
  </tile>
  <tile id="118">
   <objectgroup>
    <object id="1" x="0" y="0" width="72" height="72"/>
   </objectgroup>
  </tile>
  <tile id="119">
   <objectgroup>
    <object id="1" x="0" y="0" width="72" height="72"/>
   </objectgroup>
  </tile>
  <tile id="120">
   <objectgroup>
    <object id="1" x="0" y="0" width="72" height="72"/>
   </objectgroup>
  </tile>
  <tile id="121">
   <objectgroup>
    <object id="1" x="0" y="0" width="72" height="72"/>
   </objectgroup>
  </tile>
  <tile id="122">
   <objectgroup>
    <object id="1" x="0" y="0" width="72" height="72"/>
   </objectgroup>
  </tile>
  <tile id="123">
   <objectgroup>
    <object id="1" x="0" y="0" width="72" height="72"/>
   </objectgroup>
  </tile>
  <tile id="124">
   <objectgroup>
    <object id="1" x="0" y="0" width="72" height="72"/>
   </objectgroup>
  </tile>
  <tile id="125">
   <objectgroup>
    <object id="1" x="0" y="0" width="72" height="72"/>
   </objectgroup>
  </tile>
  <tile id="126">
   <objectgroup>
    <object id="1" x="0" y="0" width="72" height="72"/>
   </objectgroup>
  </tile>
  <tile id="127">
   <objectgroup>
    <object id="1" x="0" y="0" width="72" height="72"/>
   </objectgroup>
  </tile>
  <tile id="128">
   <objectgroup>
    <object id="1" x="0" y="0" width="72" height="72"/>
   </objectgroup>
  </tile>
  <tile id="129">
   <objectgroup>
    <object id="1" x="0" y="0" width="72" height="72"/>
   </objectgroup>
  </tile>
  <tile id="130">
   <objectgroup>
    <object id="1" x="0" y="0" width="72" height="72"/>
   </objectgroup>
  </tile>
  <tile id="131">
   <objectgroup>
    <object id="1" x="0" y="0" width="72" height="72"/>
   </objectgroup>
  </tile>
  <tile id="132">
   <objectgroup>
    <object id="1" x="0" y="0" width="72" height="72"/>
   </objectgroup>
  </tile>
  <tile id="133">
   <objectgroup>
    <object id="1" x="0" y="0" width="72" height="72"/>
   </objectgroup>
  </tile>
  <tile id="134">
   <objectgroup>
    <object id="1" x="0" y="0" width="72" height="72"/>
   </objectgroup>
  </tile>
  <tile id="135">
   <objectgroup>
    <object id="1" x="0" y="0" width="72" height="72"/>
   </objectgroup>
  </tile>
  <tile id="136">
   <objectgroup>
    <object id="1" x="0" y="0" width="72" height="72"/>
   </objectgroup>
  </tile>
  <tile id="137">
   <objectgroup>
    <object id="1" x="0" y="0" width="72" height="72"/>
   </objectgroup>
  </tile>
  <tile id="138">
   <objectgroup>
    <object id="1" x="0" y="0" width="72" height="72"/>
   </objectgroup>
  </tile>
  <tile id="139">
   <objectgroup>
    <object id="1" x="0" y="0" width="72" height="72"/>
   </objectgroup>
  </tile>
  <tile id="140">
   <objectgroup draworder="index" id="2">
    <object id="1" x="0" y="0" width="72" height="72"/>
   </objectgroup>
  </tile>
  <tile id="146">
   <objectgroup draworder="index" id="2">
    <object id="1" x="58.3333" y="0.666667">
     <polygon points="0,0 -5,9.66667 -8.66667,17.3333 -12.6667,23.6667 -15.6667,37 -17,45.3333 -16,57.3333 -16,65.3333 -17,69.3333 -13.6667,71.3333 15,77 22.6667,68.6667 25.3333,-2.33333"/>
    </object>
   </objectgroup>
  </tile>
  <tile id="147">
   <objectgroup>
    <object id="1" x="0" y="0" width="72" height="72"/>
   </objectgroup>
  </tile>
  <tile id="148">
   <objectgroup>
    <object id="1" x="0" y="0" width="72" height="72"/>
   </objectgroup>
  </tile>
  <tile id="149">
   <objectgroup>
    <object id="1" x="0" y="0" width="72" height="72"/>
   </objectgroup>
  </tile>
  <tile id="150">
   <objectgroup>
    <object id="1" x="0" y="0" width="72" height="72"/>
   </objectgroup>
  </tile>
  <tile id="151">
   <objectgroup>
    <object id="1" x="0" y="0" width="72" height="72"/>
   </objectgroup>
  </tile>
  <tile id="152">
   <objectgroup>
    <object id="1" x="0" y="0" width="72" height="72"/>
   </objectgroup>
  </tile>
  <tile id="153">
   <objectgroup>
    <object id="1" x="0" y="0" width="72" height="72"/>
   </objectgroup>
  </tile>
  <tile id="154">
   <objectgroup>
    <object id="1" x="0" y="0" width="72" height="72"/>
   </objectgroup>
  </tile>
  <tile id="155">
   <objectgroup>
    <object id="1" x="0" y="0" width="72" height="72"/>
   </objectgroup>
  </tile>
  <tile id="156">
   <objectgroup>
    <object id="1" x="0" y="0" width="72" height="72"/>
   </objectgroup>
  </tile>
  <tile id="157">
   <objectgroup>
    <object id="1" x="0" y="0" width="72" height="72"/>
   </objectgroup>
  </tile>
  <tile id="158">
   <objectgroup>
    <object id="1" x="0" y="0" width="72" height="72"/>
   </objectgroup>
  </tile>
  <tile id="159">
   <objectgroup>
    <object id="1" x="0" y="0" width="72" height="72"/>
   </objectgroup>
  </tile>
  <tile id="160">
   <objectgroup>
    <object id="1" x="0" y="0" width="72" height="72"/>
   </objectgroup>
  </tile>
  <tile id="161">
   <objectgroup>
    <object id="1" x="0" y="0" width="72" height="72"/>
   </objectgroup>
  </tile>
  <tile id="162">
   <objectgroup>
    <object id="1" x="0" y="0" width="72" height="72"/>
   </objectgroup>
  </tile>
  <tile id="163">
   <objectgroup>
    <object id="1" x="0" y="0" width="72" height="72"/>
   </objectgroup>
  </tile>
  <tile id="164">
   <objectgroup>
    <object id="1" x="0" y="0" width="72" height="72"/>
   </objectgroup>
  </tile>
  <tile id="165">
   <objectgroup>
    <object id="1" x="0" y="0" width="72" height="72"/>
   </objectgroup>
  </tile>
  <tile id="166">
   <objectgroup>
    <object id="1" x="0" y="0" width="72" height="72"/>
   </objectgroup>
  </tile>
  <tile id="167">
   <objectgroup>
    <object id="1" x="0" y="0" width="72" height="72"/>
   </objectgroup>
  </tile>
  <tile id="168">
   <objectgroup>
    <object id="1" x="0" y="0" width="72" height="72"/>
   </objectgroup>
  </tile>
  <tile id="169">
   <objectgroup>
    <object id="1" x="0" y="0" width="72" height="72"/>
   </objectgroup>
  </tile>
  <tile id="170">
   <objectgroup draworder="index" id="2">
    <object id="1" x="0" y="0" width="72" height="72"/>
   </objectgroup>
  </tile>
  <tile id="176">
   <objectgroup draworder="index" id="2">
    <object id="1" x="53.6667" y="-4">
     <polygon points="0,0 -1.66667,1.33333 -9.66667,14 -10,23.6667 -9.66667,37 -1.66667,47.3333 14,53 19,54.6667 25.6667,55.6667 27.3333,31 25.6667,11 22,1.66667"/>
    </object>
   </objectgroup>
  </tile>
  <tile id="177">
   <objectgroup>
    <object id="1" x="0" y="0" width="72" height="72"/>
   </objectgroup>
  </tile>
  <tile id="178">
   <objectgroup>
    <object id="1" x="0" y="0" width="72" height="72"/>
   </objectgroup>
  </tile>
  <tile id="179">
   <objectgroup>
    <object id="1" x="0" y="0" width="72" height="72"/>
   </objectgroup>
  </tile>
  <tile id="180">
   <objectgroup>
    <object id="1" x="0" y="0" width="72" height="72"/>
   </objectgroup>
  </tile>
  <tile id="181">
   <objectgroup>
    <object id="1" x="0" y="0" width="72" height="72"/>
   </objectgroup>
  </tile>
  <tile id="182">
   <objectgroup>
    <object id="1" x="0" y="0" width="72" height="72"/>
   </objectgroup>
  </tile>
  <tile id="183">
   <objectgroup>
    <object id="1" x="0" y="0" width="72" height="72"/>
   </objectgroup>
  </tile>
  <tile id="184">
   <objectgroup>
    <object id="1" x="0" y="0" width="72" height="72"/>
   </objectgroup>
  </tile>
  <tile id="185">
   <objectgroup>
    <object id="1" x="0" y="0" width="72" height="72"/>
   </objectgroup>
  </tile>
  <tile id="186">
   <objectgroup>
    <object id="1" x="0" y="0" width="72" height="72"/>
   </objectgroup>
  </tile>
  <tile id="187">
   <objectgroup>
    <object id="1" x="0" y="0" width="72" height="72"/>
   </objectgroup>
  </tile>
  <tile id="188">
   <objectgroup>
    <object id="1" x="0" y="0" width="72" height="72"/>
   </objectgroup>
  </tile>
  <tile id="189">
   <objectgroup>
    <object id="1" x="0" y="0" width="72" height="72"/>
   </objectgroup>
  </tile>
  <tile id="190">
   <objectgroup>
    <object id="1" x="0" y="0" width="72" height="72"/>
   </objectgroup>
  </tile>
  <tile id="191">
   <objectgroup>
    <object id="1" x="0" y="0" width="72" height="72"/>
   </objectgroup>
  </tile>
  <tile id="192">
   <objectgroup>
    <object id="1" x="0" y="0" width="72" height="72"/>
   </objectgroup>
  </tile>
  <tile id="193">
   <objectgroup>
    <object id="1" x="0" y="0" width="72" height="72"/>
   </objectgroup>
  </tile>
  <tile id="194">
   <objectgroup>
    <object id="1" x="0" y="0" width="72" height="72"/>
   </objectgroup>
  </tile>
  <tile id="195">
   <objectgroup>
    <object id="1" x="0" y="0" width="72" height="72"/>
   </objectgroup>
  </tile>
  <tile id="196">
   <objectgroup>
    <object id="1" x="0" y="0" width="72" height="72"/>
   </objectgroup>
  </tile>
  <tile id="197">
   <objectgroup>
    <object id="1" x="0" y="0" width="72" height="72"/>
   </objectgroup>
  </tile>
  <tile id="198">
   <objectgroup>
    <object id="1" x="0" y="0" width="72" height="72"/>
   </objectgroup>
  </tile>
  <tile id="199">
   <objectgroup>
    <object id="1" x="0" y="0" width="72" height="72"/>
   </objectgroup>
  </tile>
  <tile id="200">
   <objectgroup>
    <object id="1" x="0" y="0" width="72" height="72"/>
   </objectgroup>
  </tile>
  <tile id="201">
   <objectgroup draworder="index" id="3">
    <object id="2" x="0.333333" y="0">
     <polygon points="0,0 71.3333,70.6667 71.6667,72.3333 -0.666667,72.3333"/>
    </object>
   </objectgroup>
  </tile>
  <tile id="207">
   <objectgroup>
    <object id="1" x="0" y="0" width="72" height="72"/>
   </objectgroup>
  </tile>
  <tile id="208">
   <objectgroup>
    <object id="1" x="0" y="0" width="72" height="72"/>
   </objectgroup>
  </tile>
  <tile id="209">
   <objectgroup>
    <object id="1" x="0" y="0" width="72" height="72"/>
   </objectgroup>
  </tile>
  <tile id="210">
   <objectgroup>
    <object id="1" x="0" y="0" width="72" height="72"/>
   </objectgroup>
  </tile>
  <tile id="211">
   <objectgroup>
    <object id="1" x="0" y="0" width="72" height="72"/>
   </objectgroup>
  </tile>
  <tile id="212">
   <objectgroup>
    <object id="1" x="0" y="0" width="72" height="72"/>
   </objectgroup>
  </tile>
  <tile id="213">
   <objectgroup>
    <object id="1" x="0" y="0" width="72" height="72"/>
   </objectgroup>
  </tile>
  <tile id="214">
   <objectgroup>
    <object id="1" x="0" y="0" width="72" height="72"/>
   </objectgroup>
  </tile>
  <tile id="215">
   <objectgroup>
    <object id="1" x="0" y="0" width="72" height="72"/>
   </objectgroup>
  </tile>
  <tile id="216">
   <objectgroup>
    <object id="1" x="0" y="0" width="72" height="72"/>
   </objectgroup>
  </tile>
  <tile id="217">
   <objectgroup>
    <object id="1" x="0" y="0" width="72" height="72"/>
   </objectgroup>
  </tile>
  <tile id="218">
   <objectgroup>
    <object id="1" x="0" y="0" width="72" height="72"/>
   </objectgroup>
  </tile>
  <tile id="219">
   <objectgroup>
    <object id="1" x="0" y="0" width="72" height="72"/>
   </objectgroup>
  </tile>
  <tile id="220">
   <objectgroup>
    <object id="1" x="0" y="0" width="72" height="72"/>
   </objectgroup>
  </tile>
  <tile id="221">
   <objectgroup>
    <object id="1" x="0" y="0" width="72" height="72"/>
   </objectgroup>
  </tile>
  <tile id="222">
   <objectgroup>
    <object id="1" x="0" y="0" width="72" height="72"/>
   </objectgroup>
  </tile>
  <tile id="223">
   <objectgroup>
    <object id="1" x="0" y="0" width="72" height="72"/>
   </objectgroup>
  </tile>
  <tile id="224">
   <objectgroup>
    <object id="1" x="0" y="0" width="72" height="72"/>
   </objectgroup>
  </tile>
  <tile id="225">
   <objectgroup>
    <object id="1" x="0" y="0" width="72" height="72"/>
   </objectgroup>
  </tile>
  <tile id="226">
   <objectgroup>
    <object id="1" x="0" y="0" width="72" height="72"/>
   </objectgroup>
  </tile>
  <tile id="227">
   <objectgroup>
    <object id="1" x="0" y="0" width="72" height="72"/>
   </objectgroup>
  </tile>
  <tile id="228">
   <objectgroup>
    <object id="1" x="0" y="0" width="72" height="72"/>
   </objectgroup>
  </tile>
  <tile id="229">
   <objectgroup>
    <object id="1" x="0" y="0" width="72" height="72"/>
   </objectgroup>
  </tile>
  <tile id="230">
   <objectgroup>
    <object id="1" x="0" y="0" width="72" height="72"/>
   </objectgroup>
  </tile>
  <tile id="231">
   <objectgroup>
    <object id="1" x="0" y="0" width="72" height="72"/>
   </objectgroup>
  </tile>
  <tile id="232">
   <objectgroup draworder="index" id="2">
    <object id="2" x="0.333333" y="-0.666667">
     <polygon points="0,0 57.3333,32.6667 72.3333,33 72.3333,71.3333 -1.66667,72.6667"/>
    </object>
   </objectgroup>
  </tile>
  <tile id="233">
   <objectgroup draworder="index" id="2">
    <object id="1" x="0.333333" y="34" width="72.3333" height="37"/>
    <object id="2" x="86.3333" y="97.6667" width="0.333333"/>
   </objectgroup>
  </tile>
  <tile id="234">
   <objectgroup>
    <object id="1" x="0.333333" y="34" width="72.3333" height="37"/>
   </objectgroup>
  </tile>
  <tile id="236">
   <objectgroup draworder="index" id="2">
    <object id="1" x="35.3333" y="35.6667" width="37.3333" height="36.3333"/>
   </objectgroup>
  </tile>
  <tile id="237">
   <objectgroup>
    <object id="1" x="0" y="0" width="72" height="72"/>
   </objectgroup>
  </tile>
  <tile id="238">
   <objectgroup>
    <object id="1" x="0" y="0" width="72" height="72"/>
   </objectgroup>
  </tile>
  <tile id="239">
   <objectgroup>
    <object id="1" x="0" y="0" width="72" height="72"/>
   </objectgroup>
  </tile>
  <tile id="240">
   <objectgroup>
    <object id="1" x="0" y="0" width="72" height="72"/>
   </objectgroup>
  </tile>
  <tile id="241">
   <objectgroup>
    <object id="1" x="0" y="0" width="72" height="72"/>
   </objectgroup>
  </tile>
  <tile id="242">
   <objectgroup>
    <object id="1" x="0" y="0" width="72" height="72"/>
   </objectgroup>
  </tile>
  <tile id="243">
   <objectgroup>
    <object id="1" x="0" y="0" width="72" height="72"/>
   </objectgroup>
  </tile>
  <tile id="244">
   <objectgroup>
    <object id="1" x="0" y="0" width="72" height="72"/>
   </objectgroup>
  </tile>
  <tile id="245">
   <objectgroup>
    <object id="1" x="0" y="0" width="72" height="72"/>
   </objectgroup>
  </tile>
  <tile id="246">
   <objectgroup>
    <object id="1" x="0" y="0" width="72" height="72"/>
   </objectgroup>
  </tile>
  <tile id="247">
   <objectgroup>
    <object id="1" x="0" y="0" width="72" height="72"/>
   </objectgroup>
  </tile>
  <tile id="248">
   <objectgroup>
    <object id="1" x="0" y="0" width="72" height="72"/>
   </objectgroup>
  </tile>
  <tile id="249">
   <objectgroup>
    <object id="1" x="0" y="0" width="72" height="72"/>
   </objectgroup>
  </tile>
  <tile id="250">
   <objectgroup>
    <object id="1" x="0" y="0" width="72" height="72"/>
   </objectgroup>
  </tile>
  <tile id="251">
   <objectgroup>
    <object id="1" x="0" y="0" width="72" height="72"/>
   </objectgroup>
  </tile>
  <tile id="252">
   <objectgroup>
    <object id="1" x="0" y="0" width="72" height="72"/>
   </objectgroup>
  </tile>
  <tile id="253">
   <objectgroup>
    <object id="1" x="0" y="0" width="72" height="72"/>
   </objectgroup>
  </tile>
  <tile id="254">
   <objectgroup>
    <object id="1" x="0" y="0" width="72" height="72"/>
   </objectgroup>
  </tile>
  <tile id="255">
   <objectgroup>
    <object id="1" x="0" y="0" width="72" height="72"/>
   </objectgroup>
  </tile>
  <tile id="256">
   <objectgroup>
    <object id="1" x="0" y="0" width="72" height="72"/>
   </objectgroup>
  </tile>
  <tile id="257">
   <objectgroup>
    <object id="1" x="0" y="0" width="72" height="72"/>
   </objectgroup>
  </tile>
  <tile id="258">
   <objectgroup>
    <object id="1" x="0" y="0" width="72" height="72"/>
   </objectgroup>
  </tile>
  <tile id="259">
   <objectgroup>
    <object id="1" x="0" y="0" width="72" height="72"/>
   </objectgroup>
  </tile>
  <tile id="260">
   <objectgroup>
    <object id="1" x="0" y="0" width="72" height="72"/>
   </objectgroup>
  </tile>
  <tile id="261">
   <objectgroup>
    <object id="1" x="0" y="0" width="72" height="72"/>
   </objectgroup>
  </tile>
  <tile id="262">
   <objectgroup>
    <object id="1" x="0" y="0" width="72" height="72"/>
   </objectgroup>
  </tile>
  <tile id="263">
   <objectgroup>
    <object id="1" x="0" y="0" width="72" height="72"/>
   </objectgroup>
  </tile>
  <tile id="264">
   <objectgroup>
    <object id="1" x="0" y="0" width="72" height="72"/>
   </objectgroup>
  </tile>
  <tile id="266">
   <objectgroup draworder="index" id="2">
    <object id="1" x="37.3333" y="-1.16573e-15" width="35.3333" height="72.3333"/>
   </objectgroup>
  </tile>
  <tile id="267">
   <objectgroup>
    <object id="1" x="0" y="0" width="72" height="72"/>
   </objectgroup>
  </tile>
  <tile id="268">
   <objectgroup>
    <object id="1" x="0" y="0" width="72" height="72"/>
   </objectgroup>
  </tile>
  <tile id="269">
   <objectgroup>
    <object id="1" x="0" y="0" width="72" height="72"/>
   </objectgroup>
  </tile>
  <tile id="270">
   <objectgroup>
    <object id="1" x="0" y="0" width="72" height="72"/>
   </objectgroup>
  </tile>
  <tile id="271">
   <objectgroup>
    <object id="1" x="0" y="0" width="72" height="72"/>
   </objectgroup>
  </tile>
  <tile id="272">
   <objectgroup>
    <object id="1" x="0" y="0" width="72" height="72"/>
   </objectgroup>
  </tile>
  <tile id="273">
   <objectgroup>
    <object id="1" x="0" y="0" width="72" height="72"/>
   </objectgroup>
  </tile>
  <tile id="274">
   <objectgroup>
    <object id="1" x="0" y="0" width="72" height="72"/>
   </objectgroup>
  </tile>
  <tile id="275">
   <objectgroup draworder="index" id="2">
    <object id="1" x="0" y="-0.333333" width="51" height="72"/>
    <object id="2" x="51" y="0" width="21" height="20.3333"/>
   </objectgroup>
  </tile>
  <tile id="276">
   <objectgroup draworder="index" id="2">
    <object id="1" x="52.6667" y="20.6667" width="19.3333" height="51.3333"/>
    <object id="2" x="-0.666667" y="-0.333333" width="72.6667" height="20.6667"/>
   </objectgroup>
  </tile>
  <tile id="277">
   <objectgroup draworder="index" id="2">
    <object id="1" x="0" y="0" width="72" height="72"/>
   </objectgroup>
  </tile>
  <tile id="278">
   <objectgroup draworder="index" id="2">
    <object id="1" x="0" y="0" width="72" height="72"/>
   </objectgroup>
  </tile>
  <tile id="279">
   <objectgroup>
    <object id="1" x="0" y="0" width="72" height="72"/>
   </objectgroup>
  </tile>
  <tile id="280">
   <objectgroup>
    <object id="1" x="0" y="0" width="72" height="72"/>
   </objectgroup>
  </tile>
  <tile id="281">
   <objectgroup>
    <object id="1" x="0" y="0" width="72" height="72"/>
   </objectgroup>
  </tile>
  <tile id="282">
   <objectgroup>
    <object id="1" x="0" y="0" width="72" height="72"/>
   </objectgroup>
  </tile>
  <tile id="283">
   <objectgroup>
    <object id="1" x="0" y="0" width="72" height="72"/>
   </objectgroup>
  </tile>
  <tile id="284">
   <objectgroup>
    <object id="1" x="0" y="0" width="72" height="72"/>
   </objectgroup>
  </tile>
  <tile id="285">
   <objectgroup>
    <object id="1" x="0" y="0" width="72" height="72"/>
   </objectgroup>
  </tile>
  <tile id="286">
   <objectgroup>
    <object id="1" x="0" y="0" width="72" height="72"/>
   </objectgroup>
  </tile>
  <tile id="287">
   <objectgroup>
    <object id="1" x="0" y="0" width="72" height="72"/>
   </objectgroup>
  </tile>
  <tile id="288">
   <objectgroup>
    <object id="1" x="0" y="0" width="72" height="72"/>
   </objectgroup>
  </tile>
  <tile id="289">
   <objectgroup>
    <object id="1" x="0" y="0" width="72" height="72"/>
   </objectgroup>
  </tile>
  <tile id="290">
   <objectgroup>
    <object id="1" x="0" y="0" width="72" height="72"/>
   </objectgroup>
  </tile>
  <tile id="291">
   <objectgroup>
    <object id="1" x="0" y="0" width="72" height="72"/>
   </objectgroup>
  </tile>
  <tile id="292">
   <objectgroup>
    <object id="1" x="0" y="0" width="72" height="72"/>
   </objectgroup>
  </tile>
  <tile id="293">
   <objectgroup>
    <object id="1" x="0" y="0" width="72" height="72"/>
   </objectgroup>
  </tile>
  <tile id="294">
   <objectgroup>
    <object id="1" x="0" y="0" width="72" height="72"/>
   </objectgroup>
  </tile>
  <tile id="296">
   <objectgroup>
    <object id="1" x="37.3333" y="-1.16573e-15" width="35.3333" height="72.3333"/>
   </objectgroup>
  </tile>
  <tile id="297">
   <objectgroup>
    <object id="1" x="0" y="0" width="72" height="72"/>
   </objectgroup>
  </tile>
  <tile id="298">
   <objectgroup>
    <object id="1" x="0" y="0" width="72" height="72"/>
   </objectgroup>
  </tile>
  <tile id="299">
   <objectgroup>
    <object id="1" x="0" y="0" width="72" height="72"/>
   </objectgroup>
  </tile>
  <tile id="300">
   <objectgroup>
    <object id="1" x="0" y="0" width="72" height="72"/>
   </objectgroup>
  </tile>
  <tile id="301">
   <objectgroup>
    <object id="1" x="0" y="0" width="72" height="72"/>
   </objectgroup>
  </tile>
  <tile id="302">
   <objectgroup>
    <object id="1" x="0" y="0" width="72" height="72"/>
   </objectgroup>
  </tile>
  <tile id="303">
   <objectgroup>
    <object id="1" x="0" y="0" width="72" height="72"/>
   </objectgroup>
  </tile>
  <tile id="304">
   <objectgroup>
    <object id="1" x="0" y="0" width="72" height="72"/>
   </objectgroup>
  </tile>
  <tile id="305">
   <objectgroup draworder="index" id="2">
    <object id="1" x="-0.333333" y="-0.666667" width="50.3333" height="34.3333"/>
    <object id="2" x="0.333333" y="33" width="49.6667" height="40.6667"/>
   </objectgroup>
  </tile>
  <tile id="306">
   <objectgroup draworder="index" id="2">
    <object id="1" x="52.3333" y="0" width="19.6667" height="37.6667"/>
   </objectgroup>
  </tile>
  <tile id="307">
   <objectgroup draworder="index" id="2">
    <object id="1" x="0.666667" y="-0.333333">
     <polygon points="0,0 46.6667,0 46,21.3333 11.6667,20.6667 -1.66667,21.6667"/>
    </object>
    <object id="2" x="0" y="0" width="72" height="72"/>
   </objectgroup>
  </tile>
  <tile id="308">
   <objectgroup>
    <object id="1" x="0" y="0" width="72" height="72"/>
   </objectgroup>
  </tile>
  <tile id="309">
   <objectgroup>
    <object id="1" x="0" y="0" width="72" height="72"/>
   </objectgroup>
  </tile>
  <tile id="310">
   <objectgroup>
    <object id="1" x="0" y="0" width="72" height="72"/>
   </objectgroup>
  </tile>
  <tile id="311">
   <objectgroup>
    <object id="1" x="0" y="0" width="72" height="72"/>
   </objectgroup>
  </tile>
  <tile id="312">
   <objectgroup>
    <object id="1" x="0" y="0" width="72" height="72"/>
   </objectgroup>
  </tile>
  <tile id="313">
   <objectgroup>
    <object id="1" x="0" y="0" width="72" height="72"/>
   </objectgroup>
  </tile>
  <tile id="314">
   <objectgroup>
    <object id="1" x="0" y="0" width="72" height="72"/>
   </objectgroup>
  </tile>
  <tile id="315">
   <objectgroup>
    <object id="1" x="0" y="0" width="72" height="72"/>
   </objectgroup>
  </tile>
  <tile id="316">
   <objectgroup>
    <object id="1" x="0" y="0" width="72" height="72"/>
   </objectgroup>
  </tile>
  <tile id="317">
   <objectgroup>
    <object id="1" x="0" y="0" width="72" height="72"/>
   </objectgroup>
  </tile>
  <tile id="318">
   <objectgroup>
    <object id="1" x="0" y="0" width="72" height="72"/>
   </objectgroup>
  </tile>
  <tile id="319">
   <objectgroup draworder="index" id="2">
    <object id="1" x="0" y="0" width="72" height="72"/>
   </objectgroup>
  </tile>
  <tile id="320">
   <objectgroup draworder="index" id="2">
    <object id="1" x="0" y="0" width="72" height="72"/>
   </objectgroup>
  </tile>
  <tile id="321">
   <objectgroup draworder="index" id="2">
    <object id="1" x="0" y="0" width="72" height="72"/>
   </objectgroup>
  </tile>
  <tile id="322">
   <objectgroup draworder="index" id="2">
    <object id="1" x="0" y="0" width="72" height="72"/>
   </objectgroup>
  </tile>
  <tile id="323">
   <objectgroup draworder="index" id="2">
    <object id="1" x="0" y="0" width="72" height="72"/>
   </objectgroup>
  </tile>
  <tile id="324">
   <objectgroup>
    <object id="1" x="0" y="0" width="72" height="72"/>
   </objectgroup>
  </tile>
  <tile id="326">
   <objectgroup draworder="index" id="2">
    <object id="1" x="39" y="0.333333" width="35" height="72.6667"/>
   </objectgroup>
  </tile>
  <tile id="327">
   <objectgroup>
    <object id="1" x="0" y="0" width="72" height="72"/>
   </objectgroup>
  </tile>
  <tile id="328">
   <objectgroup>
    <object id="1" x="0" y="0" width="72" height="72"/>
   </objectgroup>
  </tile>
  <tile id="329">
   <objectgroup draworder="index" id="2">
    <object id="1" x="0" y="0" width="72" height="72"/>
   </objectgroup>
  </tile>
  <tile id="330">
   <objectgroup>
    <object id="1" x="0" y="0" width="72" height="72"/>
   </objectgroup>
  </tile>
  <tile id="331">
   <objectgroup>
    <object id="1" x="0" y="0" width="72" height="72"/>
   </objectgroup>
  </tile>
  <tile id="332">
   <objectgroup>
    <object id="1" x="0" y="0" width="72" height="72"/>
   </objectgroup>
  </tile>
  <tile id="337">
   <objectgroup draworder="index" id="3">
    <object id="2" x="-0.333333" y="-0.666667" width="73" height="26"/>
   </objectgroup>
  </tile>
  <tile id="338">
   <objectgroup draworder="index" id="2">
    <object id="1" x="-0.166667" y="0" width="73" height="26"/>
   </objectgroup>
  </tile>
  <tile id="339">
   <objectgroup draworder="index" id="2">
    <object id="1" x="-0.5" y="0.333333" width="73" height="26"/>
   </objectgroup>
  </tile>
  <tile id="340">
   <objectgroup draworder="index" id="2">
    <object id="1" x="-0.5" y="0.333333" width="73" height="26"/>
   </objectgroup>
  </tile>
  <tile id="341">
   <objectgroup draworder="index" id="2">
    <object id="1" x="-0.833333" y="0.666667" width="73" height="26"/>
   </objectgroup>
  </tile>
  <tile id="342">
   <objectgroup draworder="index" id="2">
    <object id="1" x="-0.833333" y="-0.333333" width="73" height="26"/>
   </objectgroup>
  </tile>
  <tile id="343">
   <objectgroup draworder="index" id="2">
    <object id="1" x="-1.16667" y="-1.33227e-15" width="73" height="26"/>
   </objectgroup>
  </tile>
  <tile id="344">
   <objectgroup draworder="index" id="2">
    <object id="1" x="-1.16667" y="-0.333333" width="73" height="26"/>
   </objectgroup>
  </tile>
  <tile id="345">
   <objectgroup>
    <object id="1" x="-1.16667" y="-0.333333" width="73" height="26"/>
   </objectgroup>
  </tile>
  <tile id="346">
   <objectgroup>
    <object id="1" x="-1.16667" y="-0.333333" width="73" height="26"/>
   </objectgroup>
  </tile>
  <tile id="347">
   <objectgroup>
    <object id="1" x="-1.16667" y="-0.333333" width="73" height="26"/>
   </objectgroup>
  </tile>
  <tile id="348">
   <objectgroup>
    <object id="1" x="-1.16667" y="-0.333333" width="73" height="26"/>
   </objectgroup>
  </tile>
  <tile id="349">
   <objectgroup>
    <object id="1" x="-1.16667" y="-0.333333" width="73" height="26"/>
   </objectgroup>
  </tile>
  <tile id="350">
   <objectgroup>
    <object id="1" x="-1.16667" y="-0.333333" width="73" height="26"/>
   </objectgroup>
  </tile>
  <tile id="351">
   <objectgroup>
    <object id="1" x="-1.16667" y="-0.333333" width="73" height="26"/>
   </objectgroup>
  </tile>
  <tile id="352">
   <objectgroup>
    <object id="1" x="-1.16667" y="-0.333333" width="73" height="26"/>
   </objectgroup>
  </tile>
  <tile id="353">
   <objectgroup>
    <object id="1" x="-1.16667" y="-0.333333" width="73" height="26"/>
   </objectgroup>
  </tile>
  <tile id="354">
   <objectgroup draworder="index" id="2">
    <object id="1" x="-1.16667" y="-0.333333" width="73" height="26"/>
    <object id="2" x="16.25" y="55" width="11.5" height="21">
     <capsule/>
    </object>
   </objectgroup>
  </tile>
  <tile id="356">
   <objectgroup draworder="index" id="2">
    <object id="1" x="39.8333" y="0.333333" width="32" height="26"/>
   </objectgroup>
  </tile>
  <tile id="357">
   <objectgroup draworder="index" id="2">
    <object id="1" x="0.166667" y="0" width="73" height="26"/>
    <object id="2" x="14.5" y="53" width="11.5" height="21">
     <capsule/>
    </object>
   </objectgroup>
  </tile>
  <tile id="358">
   <objectgroup>
    <object id="1" x="0.166667" y="0" width="73" height="26"/>
   </objectgroup>
  </tile>
  <tile id="359">
   <objectgroup>
    <object id="1" x="0.166667" y="0" width="73" height="26"/>
   </objectgroup>
  </tile>
  <tile id="360">
   <objectgroup>
    <object id="1" x="0" y="0" width="72" height="72"/>
   </objectgroup>
  </tile>
  <tile id="361">
   <objectgroup>
    <object id="1" x="0" y="0" width="72" height="72"/>
   </objectgroup>
  </tile>
  <tile id="362">
   <objectgroup>
    <object id="1" x="0" y="0" width="72" height="72"/>
   </objectgroup>
  </tile>
  <tile id="390">
   <objectgroup>
    <object id="1" x="0" y="0" width="72" height="72"/>
   </objectgroup>
  </tile>
  <tile id="391">
   <objectgroup>
    <object id="1" x="0" y="0" width="72" height="72"/>
   </objectgroup>
  </tile>
  <tile id="392">
   <objectgroup>
    <object id="1" x="0" y="0" width="72" height="72"/>
   </objectgroup>
  </tile>
  <tile id="420">
   <objectgroup>
    <object id="1" x="0" y="0" width="72" height="72"/>
   </objectgroup>
  </tile>
  <tile id="421">
   <objectgroup>
    <object id="1" x="0" y="0" width="72" height="72"/>
   </objectgroup>
  </tile>
  <tile id="422">
   <objectgroup>
    <object id="1" x="0" y="0" width="72" height="72"/>
   </objectgroup>
  </tile>
  <tile id="432">
   <objectgroup draworder="index" id="2">
    <object id="1" x="35.3182" y="26.4773" width="45.4545" height="57.0909"/>
   </objectgroup>
  </tile>
  <tile id="433">
   <objectgroup draworder="index" id="2">
    <object id="1" x="-34.4318" y="8.70452" width="48.5455" height="81.0455"/>
   </objectgroup>
  </tile>
  <tile id="450">
   <objectgroup>
    <object id="1" x="0" y="0" width="72" height="72"/>
   </objectgroup>
  </tile>
  <tile id="451">
   <objectgroup>
    <object id="1" x="0" y="0" width="72" height="72"/>
   </objectgroup>
  </tile>
  <tile id="452">
   <objectgroup draworder="index" id="2">
    <object id="1" x="0" y="0" width="72" height="72"/>
   </objectgroup>
  </tile>
  <tile id="462">
   <objectgroup draworder="index" id="2">
    <object id="1" x="24.3333" y="39.6667">
     <polygon points="0,0 18.6667,1 32.3333,0 39.6667,8.33333 45.6667,13 50,22.3333 50,31 44,36 29,38.3333 12,37 -3.66667,32.3333 -16.3333,29.6667 -24.6667,25"/>
    </object>
    <object id="2" x="29.0909" y="-1.09091" width="48.5455" height="58.5455"/>
   </objectgroup>
  </tile>
  <tile id="463">
   <objectgroup draworder="index" id="2">
    <object id="1" x="-32.0228" y="-30.5227" width="48.5455" height="58.5455"/>
   </objectgroup>
  </tile>
  <tile id="466">
   <objectgroup draworder="index" id="2">
    <object id="1" x="0" y="0" width="72" height="72"/>
   </objectgroup>
  </tile>
  <tile id="467">
   <objectgroup draworder="index" id="2">
    <object id="1" x="0" y="50.3333">
     <polygon points="0,0 13.3333,-5.66667 17.3333,-6.33333 19,0.333333 19.6667,5 21,10.6667 20,15.6667 15,20.6667 10.3333,22.6667 3.66667,23 -1.33333,21 -1.66667,10.3333"/>
    </object>
   </objectgroup>
  </tile>
  <tile id="480">
   <objectgroup>
    <object id="1" x="0" y="0" width="72" height="72"/>
   </objectgroup>
  </tile>
  <tile id="481">
   <objectgroup>
    <object id="1" x="0" y="0" width="72" height="72"/>
   </objectgroup>
  </tile>
  <tile id="482">
   <objectgroup>
    <object id="1" x="0" y="0" width="72" height="72"/>
   </objectgroup>
  </tile>
  <tile id="492">
   <objectgroup draworder="index" id="2">
    <object id="1" x="0" y="0" width="72" height="72"/>
   </objectgroup>
  </tile>
  <tile id="496">
   <objectgroup draworder="index" id="2">
    <object id="1" x="1.33333" y="-1">
     <polygon points="0,0 5.66667,15.3333 8.33333,17.3333 13,20.6667 40.3333,29.3333 54.3333,32.3333 62.6667,28.6667 73,12.6667 73,4.66667 73.6667,2.33333 73,-3 45.3333,-3.33333 31,-4.33333"/>
    </object>
   </objectgroup>
  </tile>
  <tile id="497">
   <objectgroup draworder="index" id="2">
    <object id="1" x="24" y="-1.66667">
     <polygon points="0,0 6.66667,3.33333 10.3333,13.3333 11.3333,31.6667 11.3333,42 7,50.6667 -0.666667,53 -11.3333,55.6667 -20.3333,53.6667 -27.6667,50 -28.3333,0.333333 -23.3333,-4"/>
    </object>
   </objectgroup>
  </tile>
  <tile id="499">
   <objectgroup draworder="index" id="2">
    <object id="1" x="72.6667" y="28">
     <polygon points="0,0 -23,0 -73.6667,40.6667 -74.3333,45 0.666667,44"/>
    </object>
   </objectgroup>
  </tile>
  <tile id="500">
   <objectgroup draworder="index" id="2">
    <object id="1" x="0.333333" y="30" width="72.3333" height="42"/>
   </objectgroup>
  </tile>
  <tile id="501">
   <objectgroup>
    <object id="1" x="0.333333" y="30" width="72.3333" height="42"/>
   </objectgroup>
  </tile>
  <tile id="502">
   <objectgroup>
    <object id="1" x="0.333333" y="30" width="72.3333" height="42"/>
   </objectgroup>
  </tile>
  <tile id="503">
   <objectgroup>
    <object id="1" x="0.333333" y="30" width="72.3333" height="42"/>
   </objectgroup>
  </tile>
  <tile id="504">
   <objectgroup draworder="index" id="2">
    <object id="1" x="0.666667" y="29.6667">
     <polygon points="0,0 43.3333,-0.333333 48.6667,18.3333 58.3333,21.3333 66,32.6667 66.3333,42 -0.333333,43"/>
    </object>
   </objectgroup>
  </tile>
  <tile id="507">
   <objectgroup draworder="index" id="2">
    <object id="1" x="0" y="26.3333" width="72.3333" height="45.6667"/>
   </objectgroup>
  </tile>
  <tile id="508">
   <objectgroup>
    <object id="1" x="0" y="26.3333" width="72.3333" height="45.6667"/>
   </objectgroup>
  </tile>
  <tile id="509">
   <objectgroup>
    <object id="1" x="0" y="26.3333" width="72.3333" height="45.6667"/>
   </objectgroup>
  </tile>
  <tile id="510">
   <objectgroup>
    <object id="1" x="0" y="0" width="72" height="72"/>
   </objectgroup>
  </tile>
  <tile id="511">
   <objectgroup>
    <object id="1" x="0" y="0" width="72" height="72"/>
   </objectgroup>
  </tile>
  <tile id="512">
   <objectgroup>
    <object id="1" x="0" y="0" width="72" height="72"/>
   </objectgroup>
  </tile>
  <tile id="513">
   <objectgroup>
    <object id="1" x="0" y="0" width="72" height="72"/>
   </objectgroup>
  </tile>
  <tile id="514">
   <objectgroup>
    <object id="1" x="0" y="0" width="72" height="72"/>
   </objectgroup>
  </tile>
  <tile id="515">
   <objectgroup>
    <object id="1" x="0" y="0" width="72" height="72"/>
   </objectgroup>
  </tile>
  <tile id="516">
   <objectgroup>
    <object id="1" x="0" y="0" width="72" height="72"/>
   </objectgroup>
  </tile>
  <tile id="517">
   <objectgroup>
    <object id="1" x="0" y="0" width="72" height="72"/>
   </objectgroup>
  </tile>
  <tile id="518">
   <objectgroup>
    <object id="1" x="0" y="0" width="72" height="72"/>
   </objectgroup>
  </tile>
  <tile id="519">
   <objectgroup>
    <object id="1" x="0" y="0" width="72" height="72"/>
   </objectgroup>
  </tile>
  <tile id="520">
   <objectgroup>
    <object id="1" x="0" y="0" width="72" height="72"/>
   </objectgroup>
  </tile>
  <tile id="528">
   <objectgroup draworder="index" id="2">
    <object id="1" x="56" y="-1">
     <polygon points="0,0 -56.6667,48 -56.6667,78.6667 18,76.3333 20.3333,-0.666667"/>
    </object>
   </objectgroup>
  </tile>
  <tile id="529">
   <objectgroup>
    <object id="1" x="0" y="0" width="72" height="72"/>
   </objectgroup>
  </tile>
  <tile id="530">
   <objectgroup draworder="index" id="2">
    <object id="1" x="0" y="0" width="72" height="72"/>
   </objectgroup>
  </tile>
  <tile id="531">
   <objectgroup>
    <object id="1" x="0" y="0" width="72" height="72"/>
   </objectgroup>
  </tile>
  <tile id="532">
   <objectgroup>
    <object id="1" x="0" y="0" width="72" height="72"/>
   </objectgroup>
  </tile>
  <tile id="533">
   <objectgroup>
    <object id="1" x="0" y="0" width="72" height="72"/>
   </objectgroup>
  </tile>
  <tile id="534">
   <objectgroup draworder="index" id="2">
    <object id="1" x="-5.33333" y="-1.33333" width="53.6667" height="72"/>
   </objectgroup>
  </tile>
  <tile id="537">
   <objectgroup>
    <object id="1" x="0" y="0" width="72" height="72"/>
   </objectgroup>
  </tile>
  <tile id="538">
   <objectgroup>
    <object id="1" x="0" y="0" width="72" height="72"/>
   </objectgroup>
  </tile>
  <tile id="539">
   <objectgroup>
    <object id="1" x="0" y="0" width="72" height="72"/>
   </objectgroup>
  </tile>
  <tile id="540">
   <objectgroup>
    <object id="1" x="0" y="0" width="72" height="72"/>
   </objectgroup>
  </tile>
  <tile id="541">
   <objectgroup>
    <object id="1" x="0" y="0" width="72" height="72"/>
   </objectgroup>
  </tile>
  <tile id="542">
   <objectgroup>
    <object id="1" x="0" y="0" width="72" height="72"/>
   </objectgroup>
  </tile>
  <tile id="543">
   <objectgroup>
    <object id="1" x="0" y="0" width="72" height="72"/>
   </objectgroup>
  </tile>
  <tile id="544">
   <objectgroup>
    <object id="1" x="0" y="0" width="72" height="72"/>
   </objectgroup>
  </tile>
  <tile id="545">
   <objectgroup>
    <object id="1" x="0" y="0" width="72" height="72"/>
   </objectgroup>
  </tile>
  <tile id="546">
   <objectgroup>
    <object id="1" x="0" y="0" width="72" height="72"/>
   </objectgroup>
  </tile>
  <tile id="547">
   <objectgroup>
    <object id="1" x="0" y="0" width="72" height="72"/>
   </objectgroup>
  </tile>
  <tile id="548">
   <objectgroup>
    <object id="1" x="0" y="0" width="72" height="72"/>
   </objectgroup>
  </tile>
  <tile id="549">
   <objectgroup>
    <object id="1" x="0" y="0" width="72" height="72"/>
   </objectgroup>
  </tile>
  <tile id="550">
   <objectgroup>
    <object id="1" x="0" y="0" width="72" height="72"/>
   </objectgroup>
  </tile>
  <tile id="558">
   <objectgroup draworder="index" id="2">
    <object id="1" x="0" y="0" width="72" height="72"/>
   </objectgroup>
  </tile>
  <tile id="559">
   <objectgroup draworder="index" id="2">
    <object id="1" x="0" y="0" width="72" height="72"/>
   </objectgroup>
  </tile>
  <tile id="560">
   <objectgroup draworder="index" id="2">
    <object id="1" x="0" y="0" width="72" height="72"/>
   </objectgroup>
  </tile>
  <tile id="561">
   <objectgroup draworder="index" id="2">
    <object id="1" x="0" y="-1" width="72" height="50.3333"/>
    <object id="2" x="0" y="48.6667" width="22" height="23.3333"/>
   </objectgroup>
  </tile>
  <tile id="562">
   <objectgroup>
    <object id="1" x="0" y="-1" width="72" height="50.3333"/>
   </objectgroup>
  </tile>
  <tile id="563">
   <objectgroup>
    <object id="1" x="0" y="-1" width="72" height="50.3333"/>
   </objectgroup>
  </tile>
  <tile id="564">
   <objectgroup draworder="index" id="2">
    <object id="1" x="16.6667" y="-0.333333">
     <polygon points="0,0 3.66667,11.3333 10.6667,11.3333 14.3333,8.66667 14.6667,10.6667 14.6667,18.3333 14.3333,24.3333 11,34.3333 7.66667,41.6667 5.33333,47.3333 6.66667,50.3333 4.66667,52 -1.66667,55.3333 -6,58.6667 -14.6667,61.6667 -16,64.6667 -16.3333,64.6667 -19.3333,42.6667 -19.3333,1.66667 -20.3333,-4.33333"/>
    </object>
   </objectgroup>
  </tile>
  <tile id="567">
   <objectgroup>
    <object id="1" x="0" y="0" width="72" height="72"/>
   </objectgroup>
  </tile>
  <tile id="568">
   <objectgroup>
    <object id="1" x="0" y="0" width="72" height="72"/>
   </objectgroup>
  </tile>
  <tile id="569">
   <objectgroup>
    <object id="1" x="0" y="0" width="72" height="72"/>
   </objectgroup>
  </tile>
  <tile id="570">
   <objectgroup>
    <object id="1" x="0" y="0" width="72" height="72"/>
   </objectgroup>
  </tile>
  <tile id="571">
   <objectgroup>
    <object id="1" x="0" y="0" width="72" height="72"/>
   </objectgroup>
  </tile>
  <tile id="572">
   <objectgroup>
    <object id="1" x="0" y="0" width="72" height="72"/>
   </objectgroup>
  </tile>
  <tile id="573">
   <objectgroup>
    <object id="1" x="0" y="0" width="72" height="72"/>
   </objectgroup>
  </tile>
  <tile id="574">
   <objectgroup>
    <object id="1" x="0" y="0" width="72" height="72"/>
   </objectgroup>
  </tile>
  <tile id="575">
   <objectgroup>
    <object id="1" x="0" y="0" width="72" height="72"/>
   </objectgroup>
  </tile>
  <tile id="576">
   <objectgroup>
    <object id="1" x="0" y="0" width="72" height="72"/>
   </objectgroup>
  </tile>
  <tile id="577">
   <objectgroup>
    <object id="1" x="0" y="0" width="72" height="72"/>
   </objectgroup>
  </tile>
  <tile id="578">
   <objectgroup>
    <object id="1" x="0" y="0" width="72" height="72"/>
   </objectgroup>
  </tile>
  <tile id="579">
   <objectgroup>
    <object id="1" x="0" y="0" width="72" height="72"/>
   </objectgroup>
  </tile>
  <tile id="580">
   <objectgroup>
    <object id="1" x="0" y="0" width="72" height="72"/>
   </objectgroup>
  </tile>
  <tile id="581">
   <objectgroup draworder="index" id="2">
    <object id="1" x="-1.33333" y="60.6667" width="73.6667" height="11.3333"/>
   </objectgroup>
  </tile>
  <tile id="582">
   <objectgroup>
    <object id="1" x="-1.33333" y="60.6667" width="73.6667" height="11.3333"/>
   </objectgroup>
  </tile>
  <tile id="583">
   <objectgroup draworder="index" id="2">
    <object id="1" x="-1.33333" y="60.6667" width="65.6667" height="11.3333"/>
   </objectgroup>
  </tile>
  <tile id="588">
   <objectgroup draworder="index" id="2">
    <object id="1" x="0" y="0" width="72" height="72"/>
   </objectgroup>
  </tile>
  <tile id="589">
   <objectgroup>
    <object id="1" x="0" y="0" width="72" height="72"/>
   </objectgroup>
  </tile>
  <tile id="590">
   <objectgroup>
    <object id="1" x="0" y="0" width="72" height="72"/>
   </objectgroup>
  </tile>
  <tile id="591">
   <objectgroup draworder="index" id="2">
    <object id="1" x="0" y="-0.333333" width="23" height="72.6667"/>
   </objectgroup>
  </tile>
  <tile id="597">
   <objectgroup>
    <object id="1" x="0" y="0" width="72" height="72"/>
   </objectgroup>
  </tile>
  <tile id="598">
   <objectgroup>
    <object id="1" x="0" y="0" width="72" height="72"/>
   </objectgroup>
  </tile>
  <tile id="599">
   <objectgroup>
    <object id="1" x="0" y="0" width="72" height="72"/>
   </objectgroup>
  </tile>
  <tile id="600">
   <objectgroup>
    <object id="1" x="0" y="0" width="72" height="72"/>
   </objectgroup>
  </tile>
  <tile id="601">
   <objectgroup>
    <object id="1" x="0" y="0" width="72" height="72"/>
   </objectgroup>
  </tile>
  <tile id="602">
   <objectgroup>
    <object id="1" x="0" y="0" width="72" height="72"/>
   </objectgroup>
  </tile>
  <tile id="603">
   <objectgroup>
    <object id="1" x="0" y="0" width="72" height="72"/>
   </objectgroup>
  </tile>
  <tile id="604">
   <objectgroup>
    <object id="1" x="0" y="0" width="72" height="72"/>
   </objectgroup>
  </tile>
  <tile id="605">
   <objectgroup>
    <object id="1" x="0" y="0" width="72" height="72"/>
   </objectgroup>
  </tile>
  <tile id="606">
   <objectgroup>
    <object id="1" x="0" y="0" width="72" height="72"/>
   </objectgroup>
  </tile>
  <tile id="607">
   <objectgroup>
    <object id="1" x="0" y="0" width="72" height="72"/>
   </objectgroup>
  </tile>
  <tile id="608">
   <objectgroup>
    <object id="1" x="0" y="0" width="72" height="72"/>
   </objectgroup>
  </tile>
  <tile id="609">
   <objectgroup>
    <object id="1" x="0" y="0" width="72" height="72"/>
   </objectgroup>
  </tile>
  <tile id="610">
   <objectgroup>
    <object id="1" x="0" y="0" width="72" height="72"/>
   </objectgroup>
  </tile>
  <tile id="611">
   <objectgroup>
    <object id="1" x="0" y="0" width="72" height="72"/>
   </objectgroup>
  </tile>
  <tile id="612">
   <objectgroup>
    <object id="1" x="0" y="0" width="72" height="72"/>
   </objectgroup>
  </tile>
  <tile id="613">
   <objectgroup draworder="index" id="2">
    <object id="1" x="0" y="-0.666667" width="62" height="72"/>
   </objectgroup>
  </tile>
  <tile id="615">
   <objectgroup draworder="index" id="2">
    <object id="1" x="27.3333" y="0.666667" width="45.6667" height="73.3333"/>
   </objectgroup>
  </tile>
  <tile id="616">
   <objectgroup>
    <object id="1" x="0" y="0" width="72" height="72"/>
   </objectgroup>
  </tile>
  <tile id="617">
   <objectgroup>
    <object id="1" x="0" y="0" width="72" height="72"/>
   </objectgroup>
  </tile>
  <tile id="618">
   <objectgroup>
    <object id="1" x="0" y="0" width="72" height="72"/>
   </objectgroup>
  </tile>
  <tile id="619">
   <objectgroup>
    <object id="1" x="0" y="0" width="72" height="72"/>
   </objectgroup>
  </tile>
  <tile id="620">
   <objectgroup>
    <object id="1" x="0" y="0" width="72" height="72"/>
   </objectgroup>
  </tile>
  <tile id="621">
   <objectgroup>
    <object id="1" x="0" y="-0.333333" width="23" height="72.6667"/>
   </objectgroup>
  </tile>
  <tile id="623">
   <objectgroup draworder="index" id="2">
    <object id="1" x="5.66667" y="35" width="66.6667" height="37.3333"/>
   </objectgroup>
  </tile>
  <tile id="624">
   <objectgroup draworder="index" id="2">
    <object id="1" x="-0.333333" y="35.3333" width="72.3333" height="36.6667"/>
   </objectgroup>
  </tile>
  <tile id="625">
   <objectgroup draworder="index" id="2">
    <object id="1" x="0" y="39" width="72.3333" height="33"/>
   </objectgroup>
  </tile>
  <tile id="626">
   <objectgroup draworder="index" id="2">
    <object id="3" x="71.6667" y="0.666667">
     <polygon points="0,0 -71,71.3333 0.666667,71.3333"/>
    </object>
    <object id="4" x="0.333333" y="44" width="30" height="28"/>
   </objectgroup>
  </tile>
  <tile id="627">
   <objectgroup>
    <object id="1" x="0" y="0" width="72" height="72"/>
   </objectgroup>
  </tile>
  <tile id="628">
   <objectgroup>
    <object id="1" x="0" y="0" width="72" height="72"/>
   </objectgroup>
  </tile>
  <tile id="629">
   <objectgroup>
    <object id="1" x="0" y="0" width="72" height="72"/>
   </objectgroup>
  </tile>
  <tile id="630">
   <objectgroup>
    <object id="1" x="0" y="0" width="72" height="72"/>
   </objectgroup>
  </tile>
  <tile id="631">
   <objectgroup>
    <object id="1" x="0" y="0" width="72" height="72"/>
   </objectgroup>
  </tile>
  <tile id="632">
   <objectgroup>
    <object id="1" x="0" y="0" width="72" height="72"/>
   </objectgroup>
  </tile>
  <tile id="633">
   <objectgroup>
    <object id="1" x="0" y="0" width="72" height="72"/>
   </objectgroup>
  </tile>
  <tile id="634">
   <objectgroup draworder="index" id="2">
    <object id="1" x="0" y="0" width="72" height="72"/>
   </objectgroup>
  </tile>
  <tile id="636">
   <objectgroup draworder="index" id="2">
    <object id="1" x="40.3333" y="-0.333333">
     <polygon points="0,0 8.33333,5 14.6667,10 15,10.6667 18.3333,14.6667 19.3333,16 21,17.3333 22,20 23.6667,23.3333 25,26.3333 25.3333,28 26,30 27.6667,34.6667 28,38 28.3333,40 28.3333,40.6667 24.6667,41.3333 24.6667,41.6667 23.6667,45.6667 23.6667,46.6667 23.6667,49.6667 23.6667,53.6667 25,60.6667 25.3333,61 29.6667,60.6667 30.3333,64.6667 31.6667,68 32.6667,70 36.6667,68.3333 38.3333,65 35.3333,-5 -2.33333,-6"/>
    </object>
   </objectgroup>
  </tile>
  <tile id="637">
   <objectgroup draworder="index" id="2">
    <object id="1" x="0" y="0" width="72" height="72"/>
   </objectgroup>
  </tile>
  <tile id="638">
   <objectgroup>
    <object id="1" x="0" y="0" width="72" height="72"/>
   </objectgroup>
  </tile>
  <tile id="639">
   <objectgroup>
    <object id="1" x="0" y="0" width="72" height="72"/>
   </objectgroup>
  </tile>
  <tile id="640">
   <objectgroup>
    <object id="1" x="0" y="0" width="72" height="72"/>
   </objectgroup>
  </tile>
  <tile id="641">
   <objectgroup>
    <object id="1" x="0" y="0" width="72" height="72"/>
   </objectgroup>
  </tile>
  <tile id="642">
   <objectgroup>
    <object id="1" x="0" y="0" width="72" height="72"/>
   </objectgroup>
  </tile>
  <tile id="643">
   <objectgroup draworder="index" id="2">
    <object id="1" x="0.333333" y="0.333333" width="62.3333" height="41.6667"/>
    <object id="2" x="0.666667" y="42" width="46" height="31"/>
   </objectgroup>
  </tile>
  <tile id="645">
   <objectgroup draworder="index" id="2">
    <object id="1" x="26.3333" y="-0.333333" width="45.6667" height="71.6667"/>
   </objectgroup>
  </tile>
  <tile id="646">
   <objectgroup>
    <object id="1" x="0" y="0" width="72" height="72"/>
   </objectgroup>
  </tile>
  <tile id="647">
   <objectgroup>
    <object id="1" x="0" y="0" width="72" height="72"/>
   </objectgroup>
  </tile>
  <tile id="648">
   <objectgroup>
    <object id="1" x="0" y="0" width="72" height="72"/>
   </objectgroup>
  </tile>
  <tile id="649">
   <objectgroup>
    <object id="1" x="0" y="0" width="72" height="72"/>
   </objectgroup>
  </tile>
  <tile id="650">
   <objectgroup>
    <object id="1" x="0" y="0" width="72" height="72"/>
   </objectgroup>
  </tile>
  <tile id="651">
   <objectgroup>
    <object id="1" x="0" y="-0.333333" width="23" height="72.6667"/>
   </objectgroup>
  </tile>
  <tile id="653">
   <objectgroup>
    <object id="1" x="0" y="0" width="72" height="72"/>
   </objectgroup>
  </tile>
  <tile id="654">
   <objectgroup>
    <object id="1" x="0" y="0" width="72" height="72"/>
   </objectgroup>
  </tile>
  <tile id="655">
   <objectgroup>
    <object id="1" x="0" y="0" width="72" height="72"/>
   </objectgroup>
  </tile>
  <tile id="656">
   <objectgroup>
    <object id="1" x="0" y="0" width="72" height="72"/>
   </objectgroup>
  </tile>
  <tile id="657">
   <objectgroup>
    <object id="1" x="0" y="0" width="72" height="72"/>
   </objectgroup>
  </tile>
  <tile id="658">
   <objectgroup>
    <object id="1" x="0" y="0" width="72" height="72"/>
   </objectgroup>
  </tile>
  <tile id="659">
   <objectgroup>
    <object id="1" x="0" y="0" width="72" height="72"/>
   </objectgroup>
  </tile>
  <tile id="660">
   <objectgroup>
    <object id="1" x="0" y="0" width="72" height="72"/>
   </objectgroup>
  </tile>
  <tile id="661">
   <objectgroup>
    <object id="1" x="0" y="0" width="72" height="72"/>
   </objectgroup>
  </tile>
  <tile id="662">
   <objectgroup>
    <object id="1" x="0" y="0" width="72" height="72"/>
   </objectgroup>
  </tile>
  <tile id="663">
   <objectgroup>
    <object id="1" x="0" y="0" width="72" height="72"/>
   </objectgroup>
  </tile>
  <tile id="664">
   <objectgroup draworder="index" id="2">
    <object id="1" x="68" y="1.33333">
     <polygon points="0,-1.66667 -2,6.33333 -1.33333,13.3333 -1,15.6667 -1,21 -1.66667,23 -1.66667,34 -1.66667,41.3333 -1.66667,44 -1.33333,48.3333 1.66667,51 1.66667,57 1.66667,59.3333 1.33333,63.3333 5.33333,69.3333 4.66667,71.3333 -71,71.6667 -70,-2"/>
    </object>
   </objectgroup>
  </tile>
  <tile id="667">
   <objectgroup draworder="index" id="2">
    <object id="1" x="-0.333333" y="0">
     <polygon points="0,0 5,4.66667 5,8.33333 5,10.6667 5,14 5,20.6667 5,22.3333 5,26.3333 4.66667,29.6667 4.33333,32.6667 4.33333,37.3333 5,39.6667 5.33333,45 5.33333,46.3333 5.66667,48.3333 5.66667,49.3333 5,50.6667 3.33333,51 2,52 1,53 0.333333,55 0,57 0,59.3333 -0.666667,63.3333 -1,64.6667 -1,67.3333 -1,68 -1,68.6667 -0.666667,69.6667 -0.333333,69.6667 0,71 2,72.3333 73.3333,72.3333 72.6667,-0.666667"/>
    </object>
   </objectgroup>
  </tile>
  <tile id="668">
   <objectgroup draworder="index" id="2">
    <object id="1" x="0" y="0.333333" width="72.6667" height="44"/>
   </objectgroup>
  </tile>
  <tile id="669">
   <objectgroup>
    <object id="1" x="0" y="0.333333" width="72.6667" height="44"/>
   </objectgroup>
  </tile>
  <tile id="670">
   <objectgroup>
    <object id="1" x="0" y="0.333333" width="72.6667" height="44"/>
   </objectgroup>
  </tile>
  <tile id="671">
   <objectgroup>
    <object id="1" x="0" y="0.333333" width="72.6667" height="44"/>
   </objectgroup>
  </tile>
  <tile id="672">
   <objectgroup>
    <object id="1" x="0" y="0.333333" width="72.6667" height="44"/>
   </objectgroup>
  </tile>
  <tile id="673">
   <objectgroup draworder="index" id="2">
    <object id="1" x="0.333333" y="-0.333333" width="44.6667" height="42.6667"/>
   </objectgroup>
  </tile>
  <tile id="675">
   <objectgroup draworder="index" id="2">
    <object id="1" x="42.6666" y="0.500017" width="29.3334" height="34.3333"/>
   </objectgroup>
  </tile>
  <tile id="676">
   <objectgroup draworder="index" id="2">
    <object id="1" x="-0.333333" y="0" width="72.6667" height="34.3333"/>
   </objectgroup>
  </tile>
  <tile id="677">
   <objectgroup>
    <object id="1" x="-0.333333" y="0" width="72.6667" height="34.3333"/>
   </objectgroup>
  </tile>
  <tile id="678">
   <objectgroup>
    <object id="1" x="-0.333333" y="0" width="72.6667" height="34.3333"/>
   </objectgroup>
  </tile>
  <tile id="679">
   <objectgroup>
    <object id="1" x="-0.333333" y="0" width="72.6667" height="34.3333"/>
   </objectgroup>
  </tile>
  <tile id="680">
   <objectgroup>
    <object id="1" x="-0.333333" y="0" width="72.6667" height="34.3333"/>
   </objectgroup>
  </tile>
  <tile id="681">
   <objectgroup draworder="index" id="2">
    <object id="1" x="-1.33333" y="-1" width="25.3333" height="38.6667"/>
   </objectgroup>
  </tile>
  <tile id="683">
   <objectgroup>
    <object id="1" x="0" y="0" width="72" height="72"/>
   </objectgroup>
  </tile>
  <tile id="684">
   <objectgroup>
    <object id="1" x="0" y="0" width="72" height="72"/>
   </objectgroup>
  </tile>
  <tile id="685">
   <objectgroup>
    <object id="1" x="0" y="0" width="72" height="72"/>
   </objectgroup>
  </tile>
  <tile id="686">
   <objectgroup>
    <object id="1" x="0" y="0" width="72" height="72"/>
   </objectgroup>
  </tile>
  <tile id="687">
   <objectgroup>
    <object id="1" x="0" y="0" width="72" height="72"/>
   </objectgroup>
  </tile>
  <tile id="688">
   <objectgroup>
    <object id="1" x="0" y="0" width="72" height="72"/>
   </objectgroup>
  </tile>
  <tile id="689">
   <objectgroup>
    <object id="1" x="0" y="0" width="72" height="72"/>
   </objectgroup>
  </tile>
  <tile id="690">
   <objectgroup>
    <object id="1" x="0" y="0" width="72" height="72"/>
   </objectgroup>
  </tile>
  <tile id="691">
   <objectgroup>
    <object id="1" x="0" y="0" width="72" height="72"/>
   </objectgroup>
  </tile>
  <tile id="692">
   <objectgroup>
    <object id="1" x="0" y="0" width="72" height="72"/>
   </objectgroup>
  </tile>
  <tile id="693">
   <objectgroup>
    <object id="1" x="0" y="0" width="72" height="72"/>
   </objectgroup>
  </tile>
  <tile id="694">
   <objectgroup draworder="index" id="2">
    <object id="1" x="72" y="-0.666667">
     <polygon points="0,0 -0.666667,2.33333 -1.66667,3.66667 -2.33333,5 -2.66667,6.66667 -2.66667,8.33333 -3,11.6667 -2.66667,21 -2.66667,22 -6.33333,26 -8.33333,27.3333 -18.3333,30 -27.6667,30 -33.3333,28.3333 -43.6667,23.3333 -43.3333,18.6667 -44,13 -44,4.33333 -45.6667,1.33333 -55.6667,4 -72,1"/>
    </object>
   </objectgroup>
  </tile>
  <tile id="697">
   <objectgroup draworder="index" id="2">
    <object id="1" x="-1" y="19">
     <polygon points="0,0 5.66667,3.66667 10.6667,6.33333 16.3333,5.66667 18,5.33333 21.3333,4.66667 25.3333,4.66667 28.3333,4.66667 31,3.66667 31.6667,3.33333 34,2.33333 37.3333,0 38.6667,-2.33333 40,-4 41,-6.66667 42.3333,-9.33333 43.3333,-12.3333 43.3333,-15.6667 43.3333,-21 -1.33333,-21"/>
    </object>
   </objectgroup>
  </tile>
  <tile id="713">
   <objectgroup>
    <object id="1" x="0" y="0" width="72" height="72"/>
   </objectgroup>
  </tile>
  <tile id="714">
   <objectgroup>
    <object id="1" x="0" y="0" width="72" height="72"/>
   </objectgroup>
  </tile>
  <tile id="715">
   <objectgroup>
    <object id="1" x="0" y="0" width="72" height="72"/>
   </objectgroup>
  </tile>
  <tile id="716">
   <objectgroup>
    <object id="1" x="0" y="0" width="72" height="72"/>
   </objectgroup>
  </tile>
  <tile id="717">
   <objectgroup>
    <object id="1" x="0" y="0" width="72" height="72"/>
   </objectgroup>
  </tile>
  <tile id="718">
   <objectgroup>
    <object id="1" x="0" y="0" width="72" height="72"/>
   </objectgroup>
  </tile>
  <tile id="719">
   <objectgroup>
    <object id="1" x="0" y="0" width="72" height="72"/>
   </objectgroup>
  </tile>
  <tile id="720">
   <objectgroup>
    <object id="1" x="0" y="0" width="72" height="72"/>
   </objectgroup>
  </tile>
  <tile id="721">
   <objectgroup>
    <object id="1" x="0" y="0" width="72" height="72"/>
   </objectgroup>
  </tile>
  <tile id="722">
   <objectgroup>
    <object id="1" x="0" y="0" width="72" height="72"/>
   </objectgroup>
  </tile>
  <tile id="723">
   <objectgroup>
    <object id="1" x="0" y="0" width="72" height="72"/>
   </objectgroup>
  </tile>
  <tile id="743">
   <objectgroup draworder="index" id="2">
    <object id="1" x="0" y="0" width="72" height="72"/>
   </objectgroup>
  </tile>
  <tile id="744">
   <objectgroup draworder="index" id="2">
    <object id="1" x="0" y="0" width="72" height="72"/>
   </objectgroup>
  </tile>
  <tile id="745">
   <objectgroup draworder="index" id="2">
    <object id="1" x="0" y="0" width="72" height="72"/>
   </objectgroup>
  </tile>
  <tile id="746">
   <objectgroup draworder="index" id="2">
    <object id="1" x="0" y="0" width="72" height="72"/>
   </objectgroup>
  </tile>
  <tile id="747">
   <objectgroup>
    <object id="1" x="0" y="0" width="72" height="72"/>
   </objectgroup>
  </tile>
  <tile id="748">
   <objectgroup>
    <object id="1" x="0" y="0" width="72" height="72"/>
   </objectgroup>
  </tile>
  <tile id="749">
   <objectgroup>
    <object id="1" x="0" y="0" width="72" height="72"/>
   </objectgroup>
  </tile>
  <tile id="750">
   <objectgroup>
    <object id="1" x="0" y="0" width="72" height="72"/>
   </objectgroup>
  </tile>
  <tile id="751">
   <objectgroup>
    <object id="1" x="0" y="0" width="72" height="72"/>
   </objectgroup>
  </tile>
  <tile id="752">
   <objectgroup>
    <object id="1" x="0" y="0" width="72" height="72"/>
   </objectgroup>
  </tile>
  <tile id="753">
   <objectgroup>
    <object id="1" x="0" y="0" width="72" height="72"/>
   </objectgroup>
  </tile>
  <tile id="758">
   <objectgroup draworder="index" id="2">
    <object id="1" x="0.333333" y="-0.333333" width="20" height="71.3333"/>
   </objectgroup>
  </tile>
  <tile id="764">
   <objectgroup draworder="index" id="2">
    <object id="1" x="1.5" y="72.25">
     <polygon points="0,0 35,-3.25 43.5,-4 50,-4.5 61.75,-4.75 67.75,-3.25 72.75,-1.5 70.5,-0.25"/>
    </object>
   </objectgroup>
  </tile>
  <tile id="765">
   <objectgroup draworder="index" id="2">
    <object id="1" x="-0.25" y="66.5">
     <polygon points="0,0 9.5,4.75 13.25,7.5 0.25,5.5"/>
    </object>
   </objectgroup>
  </tile>
  <tile id="768">
   <objectgroup draworder="index" id="2">
    <object id="1" x="0.333333" y="5" width="12.3333" height="68"/>
   </objectgroup>
  </tile>
  <tile id="770">
   <objectgroup draworder="index" id="2">
    <object id="1" x="38.3333" y="39.6667" width="38.6667" height="40.3333"/>
   </objectgroup>
  </tile>
  <tile id="777">
   <objectgroup>
    <object id="1" x="0" y="0" width="72" height="72"/>
   </objectgroup>
  </tile>
  <tile id="778">
   <objectgroup>
    <object id="1" x="0" y="0" width="72" height="72"/>
   </objectgroup>
  </tile>
  <tile id="779">
   <objectgroup>
    <object id="1" x="0" y="0" width="72" height="72"/>
   </objectgroup>
  </tile>
  <tile id="780">
   <objectgroup>
    <object id="1" x="0" y="0" width="72" height="72"/>
   </objectgroup>
  </tile>
  <tile id="781">
   <objectgroup>
    <object id="1" x="0" y="0" width="72" height="72"/>
   </objectgroup>
  </tile>
  <tile id="782">
   <objectgroup>
    <object id="1" x="0" y="0" width="72" height="72"/>
   </objectgroup>
  </tile>
  <tile id="783">
   <objectgroup>
    <object id="1" x="0" y="0" width="72" height="72"/>
   </objectgroup>
  </tile>
  <tile id="784">
   <objectgroup draworder="index" id="2">
    <object id="1" x="0" y="48.3333" width="71.6667" height="22.6667"/>
   </objectgroup>
  </tile>
  <tile id="785">
   <objectgroup draworder="index" id="2">
    <object id="1" x="-2" y="51" width="73.6667" height="20.3333"/>
   </objectgroup>
  </tile>
  <tile id="786">
   <objectgroup draworder="index" id="2">
    <object id="1" x="-0.333333" y="50" width="72" height="22.6667"/>
   </objectgroup>
  </tile>
  <tile id="787">
   <objectgroup draworder="index" id="2">
    <object id="1" x="-0.333333" y="49.3333" width="72.6667" height="22.3333"/>
   </objectgroup>
  </tile>
  <tile id="788">
   <objectgroup draworder="index" id="2">
    <object id="1" x="-0.333333" y="-0.666667" width="20.3333" height="72.6667"/>
   </objectgroup>
  </tile>
  <tile id="793">
   <objectgroup draworder="index" id="2">
    <object id="1" x="7.5" y="70.75">
     <polygon points="0,0 -2,-30.5 29,-33.25 50.25,-53.5 59.5,-59.75 63.5,-61.5 65,-62.25 64.5,1.25"/>
    </object>
   </objectgroup>
  </tile>
  <tile id="794">
   <objectgroup draworder="index" id="2">
    <object id="1" x="0" y="0" width="72" height="72"/>
   </objectgroup>
  </tile>
  <tile id="795">
   <objectgroup draworder="index" id="2">
    <object id="4" x="-0.75" y="1.75">
     <polygon points="0,0 8.75,0.25 18.25,5 22.25,7.25 28.5,10.75 35,16.5 40.75,23.75 48,32.75 50.5,37 51.25,38.5 74.25,38.25 72.75,70.25 0.75,70.25"/>
    </object>
   </objectgroup>
  </tile>
  <tile id="796">
   <objectgroup draworder="index" id="2">
    <object id="1" x="-1.5" y="32.25">
     <polygon points="0,0 7,0.75 6.5,40 1.5,39.75"/>
    </object>
   </objectgroup>
  </tile>
  <tile id="798">
   <objectgroup draworder="index" id="2">
    <object id="1" x="0" y="0.333333" width="14" height="72.3333"/>
   </objectgroup>
  </tile>
  <tile id="807">
   <objectgroup>
    <object id="1" x="0" y="0" width="72" height="72"/>
   </objectgroup>
  </tile>
  <tile id="808">
   <objectgroup>
    <object id="1" x="0" y="0" width="72" height="72"/>
   </objectgroup>
  </tile>
  <tile id="809">
   <objectgroup>
    <object id="1" x="0" y="0" width="72" height="72"/>
   </objectgroup>
  </tile>
  <tile id="810">
   <objectgroup>
    <object id="1" x="0" y="0" width="72" height="72"/>
   </objectgroup>
  </tile>
  <tile id="811">
   <objectgroup>
    <object id="1" x="0" y="0" width="72" height="72"/>
   </objectgroup>
  </tile>
  <tile id="812">
   <objectgroup>
    <object id="1" x="0" y="0" width="72" height="72"/>
   </objectgroup>
  </tile>
  <tile id="813">
   <objectgroup>
    <object id="1" x="0" y="0" width="72" height="72"/>
   </objectgroup>
  </tile>
  <tile id="814">
   <objectgroup>
    <object id="1" x="0" y="0" width="72" height="72"/>
   </objectgroup>
  </tile>
  <tile id="815">
   <objectgroup>
    <object id="1" x="0" y="0" width="72" height="72"/>
   </objectgroup>
  </tile>
  <tile id="816">
   <objectgroup>
    <object id="1" x="0" y="0" width="72" height="72"/>
   </objectgroup>
  </tile>
  <tile id="817">
   <objectgroup>
    <object id="1" x="0" y="0" width="72" height="72"/>
   </objectgroup>
  </tile>
  <tile id="818">
   <objectgroup>
    <object id="1" x="0" y="0" width="72" height="72"/>
   </objectgroup>
  </tile>
  <tile id="819">
   <objectgroup>
    <object id="1" x="0" y="0" width="72" height="72"/>
   </objectgroup>
  </tile>
  <tile id="820">
   <objectgroup>
    <object id="1" x="0" y="0" width="72" height="72"/>
   </objectgroup>
  </tile>
  <tile id="821">
   <objectgroup>
    <object id="1" x="0" y="0" width="72" height="72"/>
   </objectgroup>
  </tile>
  <tile id="822">
   <objectgroup>
    <object id="1" x="0" y="0" width="72" height="72"/>
   </objectgroup>
  </tile>
  <tile id="823">
   <objectgroup draworder="index" id="2">
    <object id="1" x="0" y="1">
     <polygon points="0,0 46,70.6667 -1,71"/>
    </object>
   </objectgroup>
  </tile>
  <tile id="825">
   <objectgroup draworder="index" id="2">
    <object id="1" x="72.3333" y="36.6667">
     <polygon points="0,11 -24.6667,35.3333 0,35.6667"/>
    </object>
   </objectgroup>
  </tile>
  <tile id="826">
   <objectgroup draworder="index" id="2">
    <object id="1" x="28.6667" y="17" width="44.3333" height="54.6667"/>
    <object id="3" x="28.6667" y="17">
     <polygon points="0,0 -29,32 -29.3333,54.6667 -0.666667,54.6667"/>
    </object>
   </objectgroup>
  </tile>
  <tile id="827">
   <objectgroup draworder="index" id="2">
    <object id="1" x="0" y="18" width="72.3333" height="54.3333"/>
   </objectgroup>
  </tile>
  <tile id="828">
   <objectgroup draworder="index" id="2">
    <object id="1" x="-0.333333" y="-0.333333" width="13" height="72.3333"/>
   </objectgroup>
  </tile>
  <tile id="834">
   <objectgroup draworder="index" id="2">
    <object id="1" x="0" y="0" width="72" height="72"/>
   </objectgroup>
  </tile>
  <tile id="837">
   <objectgroup>
    <object id="1" x="0" y="0" width="72" height="72"/>
   </objectgroup>
  </tile>
  <tile id="838">
   <objectgroup>
    <object id="1" x="0" y="0" width="72" height="72"/>
   </objectgroup>
  </tile>
  <tile id="839">
   <objectgroup>
    <object id="1" x="0" y="0" width="72" height="72"/>
   </objectgroup>
  </tile>
  <tile id="840">
   <objectgroup>
    <object id="1" x="0" y="0" width="72" height="72"/>
   </objectgroup>
  </tile>
  <tile id="841">
   <objectgroup>
    <object id="1" x="0" y="0" width="72" height="72"/>
   </objectgroup>
  </tile>
  <tile id="842">
   <objectgroup>
    <object id="1" x="0" y="0" width="72" height="72"/>
   </objectgroup>
  </tile>
  <tile id="843">
   <objectgroup>
    <object id="1" x="0" y="0" width="72" height="72"/>
   </objectgroup>
  </tile>
  <tile id="844">
   <objectgroup>
    <object id="1" x="0" y="0" width="72" height="72"/>
   </objectgroup>
  </tile>
  <tile id="845">
   <objectgroup>
    <object id="1" x="0" y="0" width="72" height="72"/>
   </objectgroup>
  </tile>
  <tile id="846">
   <objectgroup>
    <object id="1" x="0" y="0" width="72" height="72"/>
   </objectgroup>
  </tile>
  <tile id="847">
   <objectgroup>
    <object id="1" x="0" y="0" width="72" height="72"/>
   </objectgroup>
  </tile>
  <tile id="848">
   <objectgroup>
    <object id="1" x="0" y="0" width="72" height="72"/>
   </objectgroup>
  </tile>
  <tile id="849">
   <objectgroup>
    <object id="1" x="0" y="0" width="72" height="72"/>
   </objectgroup>
  </tile>
  <tile id="850">
   <objectgroup>
    <object id="1" x="0" y="0" width="72" height="72"/>
   </objectgroup>
  </tile>
  <tile id="851">
   <objectgroup>
    <object id="1" x="0" y="0" width="72" height="72"/>
   </objectgroup>
  </tile>
  <tile id="852">
   <objectgroup>
    <object id="1" x="0" y="0" width="72" height="72"/>
   </objectgroup>
  </tile>
  <tile id="853">
   <objectgroup draworder="index" id="2">
    <object id="1" x="0" y="-0.333333" width="44.6667" height="72.3333"/>
   </objectgroup>
  </tile>
  <tile id="855">
   <objectgroup draworder="index" id="2">
    <object id="1" x="41.3333" y="-0.666667" width="30.6667" height="72.3333"/>
   </objectgroup>
  </tile>
  <tile id="856">
   <objectgroup draworder="index" id="2">
    <object id="1" x="26" y="-0.333333" width="46" height="73.3333"/>
    <object id="2" x="0.333333" y="0" width="25.3333" height="72"/>
   </objectgroup>
  </tile>
  <tile id="857">
   <objectgroup>
    <object id="1" x="0" y="0" width="72" height="72"/>
   </objectgroup>
  </tile>
  <tile id="858">
   <objectgroup>
    <object id="1" x="0" y="0" width="72" height="72"/>
   </objectgroup>
  </tile>
  <tile id="859">
   <objectgroup>
    <object id="1" x="0" y="0" width="72" height="72"/>
   </objectgroup>
  </tile>
  <tile id="860">
   <objectgroup>
    <object id="1" x="0" y="0" width="72" height="72"/>
   </objectgroup>
  </tile>
  <tile id="861">
   <objectgroup>
    <object id="1" x="0" y="0" width="72" height="72"/>
   </objectgroup>
  </tile>
  <tile id="862">
   <objectgroup>
    <object id="1" x="0" y="0" width="72" height="72"/>
   </objectgroup>
  </tile>
  <tile id="863">
   <objectgroup>
    <object id="1" x="0" y="0" width="72" height="72"/>
   </objectgroup>
  </tile>
  <tile id="864">
   <objectgroup>
    <object id="1" x="0" y="0" width="72" height="72"/>
   </objectgroup>
  </tile>
  <tile id="865">
   <objectgroup>
    <object id="1" x="0" y="0" width="72" height="72"/>
   </objectgroup>
  </tile>
  <tile id="866">
   <objectgroup>
    <object id="1" x="0" y="0" width="72" height="72"/>
   </objectgroup>
  </tile>
  <tile id="867">
   <objectgroup>
    <object id="1" x="0" y="0" width="72" height="72"/>
   </objectgroup>
  </tile>
  <tile id="868">
   <objectgroup>
    <object id="1" x="0" y="0" width="72" height="72"/>
   </objectgroup>
  </tile>
  <tile id="869">
   <objectgroup>
    <object id="1" x="0" y="0" width="72" height="72"/>
   </objectgroup>
  </tile>
 </tileset>
 <layer id="1" name="Tile Layer 1" width="30" height="29">
  <data encoding="csv">
1,2,3,4,5,6,7,8,9,10,11,12,13,14,15,16,17,18,19,20,21,22,23,24,25,26,27,28,29,30,
31,32,33,34,35,36,37,38,39,40,41,42,43,44,45,46,47,48,49,50,51,52,53,54,55,56,57,58,59,60,
61,62,63,64,65,66,67,68,69,70,71,72,73,74,75,76,77,78,79,80,81,82,83,84,85,86,87,88,89,90,
91,92,93,94,95,96,97,98,99,100,101,102,103,104,105,106,107,108,109,110,111,112,113,114,115,116,117,118,119,120,
121,122,123,124,125,126,127,128,129,130,131,132,133,134,135,136,137,138,139,140,141,142,143,144,145,146,147,148,149,150,
151,152,153,154,155,156,157,158,159,160,161,162,163,164,165,166,167,168,169,170,171,172,173,174,175,176,177,178,179,180,
181,182,183,184,185,186,187,188,189,190,191,192,193,194,195,196,197,198,199,200,201,202,203,204,205,206,207,208,209,210,
211,212,213,214,215,216,217,218,219,220,221,222,223,224,225,226,227,228,229,230,231,232,233,234,235,236,237,238,239,240,
241,242,243,244,245,246,247,248,249,250,251,252,253,254,255,256,257,258,259,260,261,262,263,264,265,266,267,268,269,270,
271,272,273,274,275,276,277,278,279,280,281,282,283,284,285,286,287,288,289,290,291,292,293,294,295,296,297,298,299,300,
301,302,303,304,305,306,307,308,309,310,311,312,313,314,315,316,317,318,319,320,321,322,323,324,325,326,327,328,329,330,
331,332,333,334,335,336,337,338,339,340,341,342,343,344,345,346,347,348,349,350,351,352,353,354,355,356,357,358,359,360,
361,362,363,364,365,366,367,368,369,370,371,372,373,374,375,376,377,378,379,380,381,382,383,384,385,386,387,388,389,390,
391,392,393,394,395,396,397,398,399,400,401,402,403,404,405,406,407,408,409,410,411,412,413,414,415,416,417,418,419,420,
421,422,423,424,425,426,427,428,429,430,431,432,433,434,435,436,437,438,439,440,441,442,443,444,445,446,447,448,449,450,
451,452,453,454,455,456,457,458,459,460,461,462,463,464,465,466,467,468,469,470,471,472,473,474,475,476,477,478,479,480,
481,482,483,484,485,486,487,488,489,490,491,492,493,494,495,496,497,498,499,500,501,502,503,504,505,506,507,508,509,510,
511,512,513,514,515,516,517,518,519,520,521,522,523,524,525,526,527,528,529,530,531,532,533,534,535,536,537,538,539,540,
541,542,543,544,545,546,547,548,549,550,551,552,553,554,555,556,557,558,559,560,561,562,563,564,565,566,567,568,569,570,
571,572,573,574,575,576,577,578,579,580,581,582,583,584,585,586,587,588,589,590,591,592,593,594,595,596,597,598,599,600,
601,602,603,604,605,606,607,608,609,610,611,612,613,614,615,616,617,618,619,620,621,622,623,624,625,626,627,628,629,630,
631,632,633,634,635,636,637,638,639,640,641,642,643,644,645,646,647,648,649,650,651,652,653,654,655,656,657,658,659,660,
661,662,663,664,665,666,667,668,669,670,671,672,673,674,675,676,677,678,679,680,681,682,683,684,685,686,687,688,689,690,
691,692,693,694,695,696,697,698,699,700,701,702,703,704,705,706,707,708,709,710,711,712,713,714,715,716,717,718,719,720,
721,722,723,724,725,726,727,728,729,730,731,732,733,734,735,736,737,738,739,740,741,742,743,744,745,746,747,748,749,750,
751,752,753,754,755,756,757,758,759,760,761,762,763,764,765,766,767,768,769,770,771,772,773,774,775,776,777,778,779,780,
781,782,783,784,785,786,787,788,789,790,791,792,793,794,795,796,797,798,799,800,801,802,803,804,805,806,807,808,809,810,
811,812,813,814,815,816,817,818,819,820,821,822,823,824,825,826,827,828,829,830,831,832,833,834,835,836,837,838,839,840,
841,842,843,844,845,846,847,848,849,850,851,852,853,854,855,856,857,858,859,860,861,862,863,864,865,866,867,868,869,870
</data>
 </layer>
</map>
